; generated by PrusaSlicer 2.0.0+win64 on 2019-08-17 at 10:30:04

; 

; external perimeters extrusion width = 0.45mm
; perimeters extrusion width = 0.45mm
; infill extrusion width = 0.45mm
; solid infill extrusion width = 0.45mm
; top infill extrusion width = 0.40mm
; first layer extrusion width = 0.42mm

M73 P0 R24
M73 Q0 S24
M201 X1000 Y1000 Z1000 E5000 ; sets maximum accelerations, mm/sec^2
M203 X200 Y200 Z12 E120 ; sets maximum feedrates, mm/sec
M204 P1250 R1250 T1250 ; sets acceleration (P, T) and retract acceleration (R), mm/sec^2
M205 X8.00 Y8.00 Z0.40 E1.50 ; sets the jerk limits, mm/sec
M205 S0 T0 ; sets the minimum extruding and travel feed rate, mm/sec
M107
M115 U3.7.2 ; tell printer latest fw version
G90 ; use absolute coordinates
M83 ; extruder relative mode
M104 S215 ; set extruder temp
M140 S60 ; set bed temp
M190 S60 ; wait for bed temp
M109 S215 ; wait for extruder temp
G28 W ; home all without mesh bed level
G80 ; mesh bed leveling
G1 Y-3.0 F1000.0 ; go outside print area
G92 E0.0
G1 X60.0 E9.0 F1000.0 ; intro line
M73 Q0 S24
M73 P0 R24
G1 X100.0 E12.5 F1000.0 ; intro line
G92 E0.0
M221 S95
M900 K30 ; Filament gcode
G21 ; set units to millimeters
G90 ; use absolute coordinates
M83 ; use relative distances for extrusion
;BEFORE_LAYER_CHANGE
G92 E0.0
;0.2


G1 E-0.80000 F2100.00000
G1 Z0.600 F10800.000
;AFTER_LAYER_CHANGE
;0.2
G1 X112.401 Y96.276
G1 Z0.200
G1 E0.80000 F2100.00000
M204 S1000
G1 F1200
G1 X113.589 Y95.641 E0.04222
G1 X114.240 Y95.461 E0.02118
G1 X114.925 Y95.379 E0.02162
G1 X134.879 Y95.374 E0.62565
G1 X135.677 Y95.445 E0.02512
G1 X136.489 Y95.669 E0.02640
G1 X137.214 Y96.019 E0.02525
G1 X137.855 Y96.481 E0.02478
G1 X138.415 Y97.057 E0.02518
G1 X138.886 Y97.758 E0.02647
G1 X139.206 Y98.494 E0.02517
G1 X139.391 Y99.268 E0.02495
G1 X139.406 Y110.621 E0.35596
G1 X139.203 Y111.512 E0.02866
G1 X138.807 Y112.380 E0.02991
G1 X138.264 Y113.120 E0.02877
G1 X137.590 Y113.731 E0.02854
G1 X136.405 Y114.362 E0.04209
G1 X135.759 Y114.539 E0.02098
G1 X135.077 Y114.621 E0.02156
G1 X114.937 Y114.622 E0.63146
G1 X113.924 Y114.465 E0.03214
G1 X112.982 Y114.092 E0.03177
G1 X112.147 Y113.521 E0.03172
G1 X111.460 Y112.783 E0.03162
G1 X110.772 Y111.546 E0.04436
G1 X110.571 Y110.384 E0.03700
G1 X110.566 Y99.697 E0.33508
G1 X110.725 Y98.721 E0.03101
G1 X111.100 Y97.785 E0.03159
G1 X111.665 Y96.961 E0.03133
G1 X112.358 Y96.317 E0.02967
G1 F8640
G1 X113.589 Y95.641 E-0.32437
G1 X114.240 Y95.461 E-0.15601
G1 X114.925 Y95.379 E-0.15921
G1 X115.446 Y95.379 E-0.12041
G1 E-0.04000 F2100.00000
G1 Z0.800 F10800.000
G1 X113.781 Y95.973
G1 Z0.200
G1 E0.80000 F2100.00000
G1 F1200
G1 X114.994 Y95.754 E0.03865
G1 X134.879 Y95.751 E0.62348
G1 X135.610 Y95.816 E0.02301
G1 X136.357 Y96.023 E0.02432
G1 X137.023 Y96.344 E0.02316
G1 X137.613 Y96.771 E0.02285
G1 X138.124 Y97.297 E0.02299
G1 X138.557 Y97.943 E0.02440
G1 X138.851 Y98.622 E0.02320
G1 X139.020 Y99.340 E0.02313
G1 X139.033 Y110.562 E0.35186
G1 X138.848 Y111.387 E0.02651
G1 X138.479 Y112.193 E0.02778
G1 X137.977 Y112.874 E0.02651
G1 X137.342 Y113.445 E0.02678
G1 X136.213 Y114.029 E0.03986
G1 X135.004 Y114.246 E0.03851
G1 X114.999 Y114.247 E0.62726
G1 X114.036 Y114.104 E0.03053
G1 X113.164 Y113.761 E0.02938
G1 X112.389 Y113.231 E0.02943
G1 X111.746 Y112.536 E0.02969
G1 X111.123 Y111.407 E0.04042
G1 X110.946 Y110.344 E0.03380
G1 X110.942 Y99.722 E0.33304
G1 X111.089 Y98.820 E0.02867
G1 X111.434 Y97.959 E0.02907
G1 X111.957 Y97.200 E0.02888
G1 X112.649 Y96.562 E0.02952
G1 X113.727 Y96.001 E0.03812
G1 F8640
G1 X114.994 Y95.754 E-0.29793
G1 X116.995 Y95.753 E-0.46207
G1 E-0.04000 F2100.00000
G1 Z0.800 F10800.000
G1 X131.132 Y107.817
G1 Z0.200
G1 E0.80000 F2100.00000
G1 F1200
G1 X131.399 Y107.475 E0.01359
G1 X131.727 Y107.192 E0.01359
G1 X132.104 Y106.979 E0.01359
G1 X132.516 Y106.843 E0.01359
G1 X132.946 Y106.790 E0.01359
G1 X133.378 Y106.822 E0.01359
G1 X133.796 Y106.937 E0.01359
G1 X134.183 Y107.132 E0.01359
G1 X134.525 Y107.399 E0.01359
G1 X134.808 Y107.727 E0.01359
G1 X135.021 Y108.104 E0.01359
G1 X135.157 Y108.516 E0.01359
G1 X135.210 Y108.946 E0.01359
G1 X135.178 Y109.378 E0.01359
G1 X135.063 Y109.796 E0.01359
G1 X134.868 Y110.183 E0.01359
G1 X134.601 Y110.525 E0.01359
G1 X134.273 Y110.808 E0.01359
G1 X133.896 Y111.021 E0.01359
G1 X133.484 Y111.157 E0.01359
G1 X133.054 Y111.210 E0.01359
G1 X132.622 Y111.178 E0.01359
G1 X132.204 Y111.063 E0.01359
G1 X131.817 Y110.868 E0.01359
G1 X131.475 Y110.601 E0.01359
G1 X131.192 Y110.273 E0.01359
G1 X130.979 Y109.896 E0.01359
G1 X130.843 Y109.484 E0.01359
G1 X130.790 Y109.054 E0.01359
G1 X130.822 Y108.622 E0.01359
G1 X130.937 Y108.204 E0.01359
G1 X131.105 Y107.871 E0.01171
G1 X130.946 Y107.463 F10800.000
G1 F8640
G1 X131.399 Y107.475 E-0.11370
G1 X131.727 Y107.192 E-0.10008
G1 X132.104 Y106.979 E-0.10008
G1 X132.516 Y106.843 E-0.10008
G1 X132.946 Y106.790 E-0.10009
G1 X133.378 Y106.822 E-0.10007
G1 X133.796 Y106.937 E-0.10008
G1 X133.973 Y107.026 E-0.04582
G1 E-0.04000 F2100.00000
G1 Z0.800 F10800.000
G1 X132.622 Y103.178
G1 Z0.200
G1 E0.80000 F2100.00000
G1 F1200
G1 X132.204 Y103.063 E0.01359
G1 X131.817 Y102.868 E0.01359
G1 X131.475 Y102.601 E0.01359
G1 X131.192 Y102.273 E0.01359
G1 X130.979 Y101.896 E0.01359
G1 X130.843 Y101.484 E0.01359
G1 X130.790 Y101.054 E0.01359
G1 X130.822 Y100.622 E0.01359
G1 X130.937 Y100.204 E0.01359
G1 X131.132 Y99.817 E0.01359
G1 X131.399 Y99.475 E0.01359
G1 X131.727 Y99.192 E0.01359
G1 X132.104 Y98.979 E0.01359
G1 X132.516 Y98.843 E0.01359
G1 X132.946 Y98.790 E0.01359
G1 X133.378 Y98.822 E0.01359
G1 X133.796 Y98.937 E0.01359
G1 X134.183 Y99.132 E0.01359
G1 X134.525 Y99.399 E0.01359
G1 X134.808 Y99.727 E0.01359
G1 X135.021 Y100.104 E0.01359
G1 X135.157 Y100.516 E0.01359
G1 X135.210 Y100.946 E0.01359
G1 X135.178 Y101.378 E0.01359
G1 X135.063 Y101.796 E0.01359
G1 X134.868 Y102.183 E0.01359
G1 X134.601 Y102.525 E0.01359
G1 X134.273 Y102.808 E0.01359
G1 X133.896 Y103.021 E0.01359
G1 X133.484 Y103.157 E0.01359
G1 X133.054 Y103.210 E0.01359
G1 X132.682 Y103.183 E0.01171
G1 X132.366 Y103.486 F10800.000
G1 F8640
G1 X132.204 Y103.063 E-0.11370
G1 X131.817 Y102.868 E-0.10011
G1 X131.475 Y102.601 E-0.10007
G1 X131.192 Y102.273 E-0.10007
G1 X130.979 Y101.896 E-0.10007
G1 X130.843 Y101.484 E-0.10010
G1 X130.790 Y101.054 E-0.10009
G1 X130.804 Y100.856 E-0.04579
G1 E-0.04000 F2100.00000
G1 Z0.800 F10800.000
G1 X119.178 Y101.378
G1 Z0.200
G1 E0.80000 F2100.00000
G1 F1200
G1 X119.063 Y101.796 E0.01359
G1 X118.868 Y102.183 E0.01359
G1 X118.601 Y102.525 E0.01359
G1 X118.273 Y102.808 E0.01359
G1 X117.896 Y103.021 E0.01359
G1 X117.484 Y103.157 E0.01359
G1 X117.054 Y103.210 E0.01359
G1 X116.622 Y103.178 E0.01359
G1 X116.204 Y103.063 E0.01359
G1 X115.817 Y102.868 E0.01359
G1 X115.475 Y102.601 E0.01359
G1 X115.192 Y102.273 E0.01359
G1 X114.979 Y101.896 E0.01359
G1 X114.843 Y101.484 E0.01359
G1 X114.790 Y101.054 E0.01359
G1 X114.822 Y100.622 E0.01359
G1 X114.937 Y100.204 E0.01359
G1 X115.132 Y99.817 E0.01359
G1 X115.399 Y99.475 E0.01359
G1 X115.727 Y99.192 E0.01359
G1 X116.104 Y98.979 E0.01359
G1 X116.516 Y98.843 E0.01359
G1 X116.946 Y98.790 E0.01359
G1 X117.378 Y98.822 E0.01359
G1 X117.796 Y98.937 E0.01359
G1 X118.183 Y99.132 E0.01359
G1 X118.525 Y99.399 E0.01359
G1 X118.808 Y99.727 E0.01359
G1 X119.021 Y100.104 E0.01359
G1 X119.157 Y100.516 E0.01359
G1 X119.210 Y100.946 E0.01359
G1 X119.183 Y101.318 E0.01171
G1 X119.486 Y101.634 F10800.000
G1 F8640
G1 X119.063 Y101.796 E-0.11370
G1 X118.868 Y102.183 E-0.10009
G1 X118.601 Y102.525 E-0.10009
G1 X118.273 Y102.808 E-0.10007
G1 X117.896 Y103.021 E-0.10007
G1 X117.484 Y103.157 E-0.10009
G1 X117.054 Y103.210 E-0.10008
G1 X116.856 Y103.196 E-0.04581
G1 E-0.04000 F2100.00000
G1 Z0.800 F10800.000
G1 X118.386 Y98.812
G1 Z0.200
G1 E0.80000 F2100.00000
G1 F1200
G1 X118.317 Y98.777 E0.00242
G1 X131.694 Y98.778 E0.41944
G1 X131.509 Y98.882 E0.00667
G1 X131.124 Y99.214 E0.01592
G1 X130.812 Y99.614 E0.01592
G1 X130.584 Y100.068 E0.01592
G1 X130.448 Y100.557 E0.01592
G1 X130.411 Y101.063 E0.01592
G1 X130.473 Y101.567 E0.01592
G1 X130.632 Y102.050 E0.01592
G1 X130.883 Y102.491 E0.01592
G1 X131.214 Y102.876 E0.01592
G1 X131.614 Y103.188 E0.01592
G1 X132.068 Y103.416 E0.01592
G1 X132.557 Y103.552 E0.01592
G1 X133.064 Y103.589 E0.01592
G1 X133.567 Y103.527 E0.01592
G1 X134.050 Y103.368 E0.01592
G1 X134.491 Y103.118 E0.01592
G1 X134.876 Y102.786 E0.01592
G1 X135.188 Y102.386 E0.01592
G1 X135.416 Y101.932 E0.01592
G1 X135.552 Y101.443 E0.01592
G1 X135.589 Y100.937 E0.01592
G1 X135.527 Y100.433 E0.01592
G1 X135.368 Y99.951 E0.01592
G1 X135.118 Y99.509 E0.01592
G1 X134.786 Y99.124 E0.01592
G1 X134.386 Y98.812 E0.01592
G1 X134.317 Y98.778 E0.00239
G1 X134.885 Y98.778 E0.01780
G1 X135.098 Y98.801 E0.00670
G1 X135.319 Y98.868 E0.00724
G1 X135.523 Y98.977 E0.00724
G1 X135.672 Y99.097 E0.00602
G1 X135.826 Y99.275 E0.00736
G1 X135.922 Y99.440 E0.00602
G1 X136.001 Y99.661 E0.00736
G1 X136.033 Y99.858 E0.00624
G1 X136.033 Y110.149 E0.32266
G1 X135.982 Y110.410 E0.00835
G1 X135.863 Y110.669 E0.00892
G1 X135.697 Y110.881 E0.00846
G1 X135.590 Y110.976 E0.00447
G1 X135.316 Y111.134 E0.00992
G1 X135.014 Y111.213 E0.00980
G1 X134.305 Y111.223 E0.02222
G1 X134.491 Y111.117 E0.00671
G1 X134.876 Y110.786 E0.01592
G1 X135.188 Y110.386 E0.01592
G1 X135.416 Y109.932 E0.01592
G1 X135.552 Y109.443 E0.01592
G1 X135.589 Y108.937 E0.01592
G1 X135.527 Y108.433 E0.01592
G1 X135.368 Y107.951 E0.01592
G1 X135.118 Y107.509 E0.01592
G1 X134.786 Y107.124 E0.01592
G1 X134.386 Y106.812 E0.01592
G1 X133.932 Y106.584 E0.01592
G1 X133.443 Y106.448 E0.01592
G1 X132.936 Y106.411 E0.01592
G1 X132.433 Y106.473 E0.01592
G1 X131.950 Y106.632 E0.01592
G1 X131.509 Y106.882 E0.01592
G1 X131.124 Y107.214 E0.01592
G1 X130.812 Y107.614 E0.01592
G1 X130.584 Y108.068 E0.01592
G1 X130.448 Y108.557 E0.01592
G1 X130.411 Y109.063 E0.01592
G1 X130.473 Y109.567 E0.01592
G1 X130.632 Y110.049 E0.01592
G1 X130.882 Y110.491 E0.01592
G1 X131.214 Y110.876 E0.01592
G1 X131.614 Y111.188 E0.01592
G1 X131.683 Y111.223 E0.00242
G1 X118.306 Y111.222 E0.41944
G1 X118.491 Y111.117 E0.00668
G1 X118.876 Y110.786 E0.01592
G1 X119.188 Y110.386 E0.01592
G1 X119.416 Y109.932 E0.01592
G1 X119.552 Y109.443 E0.01592
G1 X119.589 Y108.937 E0.01592
G1 X119.527 Y108.433 E0.01592
G1 X119.368 Y107.951 E0.01592
G1 X119.118 Y107.509 E0.01592
G1 X118.786 Y107.124 E0.01592
G1 X118.386 Y106.812 E0.01592
G1 X117.932 Y106.584 E0.01592
G1 X117.443 Y106.448 E0.01592
G1 X116.936 Y106.411 E0.01592
G1 X116.433 Y106.473 E0.01592
G1 X115.950 Y106.632 E0.01592
G1 X115.509 Y106.882 E0.01592
G1 X115.124 Y107.214 E0.01592
G1 X114.812 Y107.614 E0.01592
G1 X114.584 Y108.068 E0.01592
G1 X114.448 Y108.557 E0.01592
G1 X114.411 Y109.063 E0.01592
G1 X114.473 Y109.567 E0.01592
G1 X114.632 Y110.049 E0.01592
G1 X114.883 Y110.491 E0.01592
G1 X115.214 Y110.876 E0.01592
G1 X115.614 Y111.188 E0.01592
G1 X115.682 Y111.222 E0.00239
G1 X114.955 Y111.209 E0.02283
G1 X114.819 Y111.180 E0.00435
G1 X114.528 Y111.057 E0.00992
G1 X114.304 Y110.882 E0.00892
G1 X114.129 Y110.657 E0.00892
G1 X114.015 Y110.401 E0.00880
G1 X113.963 Y110.078 E0.01025
G1 X113.964 Y99.887 E0.31954
G1 X114.013 Y99.603 E0.00903
G1 X114.128 Y99.343 E0.00892
G1 X114.303 Y99.119 E0.00892
G1 X114.525 Y98.946 E0.00880
G1 X114.684 Y98.866 E0.00558
G1 X114.986 Y98.787 E0.00980
G1 X115.695 Y98.777 E0.02222
G1 X115.509 Y98.882 E0.00670
G1 X115.124 Y99.214 E0.01592
G1 X114.812 Y99.614 E0.01592
G1 X114.584 Y100.068 E0.01592
G1 X114.448 Y100.557 E0.01592
G1 X114.411 Y101.064 E0.01592
G1 X114.473 Y101.567 E0.01592
G1 X114.632 Y102.050 E0.01592
G1 X114.883 Y102.491 E0.01592
G1 X115.214 Y102.876 E0.01592
G1 X115.614 Y103.188 E0.01592
G1 X116.068 Y103.416 E0.01592
G1 X116.557 Y103.552 E0.01592
G1 X117.064 Y103.589 E0.01592
G1 X117.567 Y103.527 E0.01592
G1 X118.050 Y103.368 E0.01592
G1 X118.491 Y103.118 E0.01592
G1 X118.876 Y102.786 E0.01592
G1 X119.188 Y102.386 E0.01592
G1 X119.416 Y101.932 E0.01592
G1 X119.552 Y101.443 E0.01592
G1 X119.589 Y100.937 E0.01592
G1 X119.527 Y100.433 E0.01592
G1 X119.368 Y99.951 E0.01592
G1 X119.118 Y99.509 E0.01592
G1 X118.786 Y99.124 E0.01592
G1 X118.433 Y98.849 E0.01404
G1 F8640
G1 X118.317 Y98.777 E-0.03155
G1 X121.471 Y98.777 E-0.72845
G1 E-0.04000 F2100.00000
G1 Z0.800 F10800.000
G1 X117.378 Y106.822
G1 Z0.200
G1 E0.80000 F2100.00000
G1 F1200
G1 X117.796 Y106.937 E0.01359
G1 X118.183 Y107.132 E0.01359
G1 X118.525 Y107.399 E0.01359
G1 X118.808 Y107.727 E0.01359
G1 X119.021 Y108.104 E0.01359
G1 X119.157 Y108.516 E0.01359
G1 X119.210 Y108.946 E0.01359
G1 X119.178 Y109.378 E0.01359
G1 X119.063 Y109.796 E0.01359
G1 X118.868 Y110.183 E0.01359
G1 X118.601 Y110.525 E0.01359
G1 X118.273 Y110.808 E0.01359
G1 X117.896 Y111.021 E0.01359
G1 X117.484 Y111.157 E0.01359
G1 X117.054 Y111.210 E0.01359
G1 X116.622 Y111.178 E0.01359
G1 X116.204 Y111.063 E0.01359
G1 X115.817 Y110.868 E0.01359
G1 X115.475 Y110.601 E0.01359
G1 X115.192 Y110.273 E0.01359
G1 X114.979 Y109.896 E0.01359
G1 X114.843 Y109.484 E0.01359
G1 X114.790 Y109.054 E0.01359
G1 X114.822 Y108.622 E0.01359
G1 X114.937 Y108.204 E0.01359
G1 X115.132 Y107.817 E0.01359
G1 X115.399 Y107.475 E0.01359
G1 X115.727 Y107.192 E0.01359
G1 X116.104 Y106.979 E0.01359
G1 X116.516 Y106.843 E0.01359
G1 X116.946 Y106.790 E0.01359
G1 X117.318 Y106.817 E0.01171
G1 X117.634 Y106.514 F10800.000
G1 F8640
G1 X117.796 Y106.937 E-0.11371
G1 X118.183 Y107.132 E-0.10010
G1 X118.525 Y107.399 E-0.10008
G1 X118.808 Y107.727 E-0.10008
G1 X119.021 Y108.104 E-0.10008
G1 X119.157 Y108.516 E-0.10008
G1 X119.210 Y108.946 E-0.10008
G1 X119.196 Y109.144 E-0.04579
G1 E-0.04000 F2100.00000
G1 Z0.800 F10800.000
G1 X136.385 Y110.360
G1 Z0.200
G1 E0.80000 F2100.00000
G1 F1200
G1 X136.338 Y110.538 E0.00576
G1 X136.193 Y110.856 E0.01096
G1 X135.964 Y111.149 E0.01166
G1 X135.822 Y111.274 E0.00592
G1 X135.668 Y111.380 E0.00588
G1 X135.463 Y111.483 E0.00718
G1 X135.287 Y111.543 E0.00584
G1 X135.062 Y111.588 E0.00718
G1 X134.867 Y111.600 E0.00613
G1 X115.091 Y111.599 E0.62006
G1 X114.716 Y111.544 E0.01190
G1 X114.500 Y111.467 E0.00718
G1 X114.178 Y111.274 E0.01178
G1 X114.036 Y111.149 E0.00592
G1 X113.805 Y110.852 E0.01182
G1 X113.652 Y110.508 E0.01178
G1 X113.602 Y110.285 E0.00718
G1 X113.586 Y110.094 E0.00600
G1 X113.587 Y99.866 E0.32070
G1 X113.608 Y99.677 E0.00596
G1 X113.717 Y99.316 E0.01182
G1 X113.911 Y98.993 E0.01182
G1 X114.036 Y98.851 E0.00592
G1 X114.332 Y98.620 E0.01178
G1 X114.537 Y98.517 E0.00718
G1 X114.713 Y98.457 E0.00584
G1 X114.938 Y98.412 E0.00718
G1 X115.133 Y98.400 E0.00613
G1 X134.906 Y98.401 E0.61998
G1 X135.174 Y98.430 E0.00844
G1 X135.464 Y98.518 E0.00950
G1 X135.731 Y98.661 E0.00950
G1 X135.935 Y98.824 E0.00820
G1 X136.134 Y99.055 E0.00954
G1 X136.266 Y99.281 E0.00820
G1 X136.368 Y99.567 E0.00954
G1 X136.410 Y99.828 E0.00828
G1 X136.410 Y110.174 E0.32441
G1 X136.393 Y110.301 E0.00400
G1 X136.213 Y110.423 F10800.000
G1 X135.717 Y110.034
G1 F1200
G1 X135.741 Y109.853 E0.00390
G1 X135.766 Y109.671 E0.00315
G1 X135.791 Y109.490 E0.00240
G1 X135.812 Y108.934 E0.00500
G1 X135.777 Y108.370 E0.00312
G1 X135.697 Y107.879 E0.00726
G1 X135.803 Y107.747 F10800.000
G1 F1200
G1 X127.116 Y99.060 E0.38821
G1 X127.654 Y99.060 E0.01698
G1 X130.192 Y101.598 E0.11343
G1 X130.132 Y101.001 E0.01897
G1 X128.191 Y99.060 E0.08673
G1 X128.729 Y99.060 E0.01698
G1 X130.170 Y100.502 E0.06442
G1 X130.287 Y100.081 E0.01380
G1 X129.266 Y99.060 E0.04560
G1 X129.804 Y99.060 E0.01698
G1 X130.449 Y99.706 E0.02885
G1 X130.572 Y99.462 E0.00862
G1 X130.647 Y99.366 E0.00386
G1 X130.341 Y99.060 E0.01367
G1 X130.879 Y99.060 E0.01698
G1 X131.003 Y99.185 E0.00558
G1 X131.911 Y98.862 F10800.000
G1 F1200
G1 X131.985 Y98.701 E0.00270
G1 X132.228 Y98.662 E0.00376
G1 X132.647 Y98.613 E0.00242
G1 X133.405 Y98.611 F10800.000
G1 F1200
G1 X133.566 Y98.633 E0.00124
G1 X133.727 Y98.654 E0.00179
G1 X134.137 Y98.723 E0.00626
G1 X134.993 Y98.979 F10800.000
G1 F1200
G1 X135.166 Y99.118 E0.00472
G1 X135.386 Y99.302 E0.00697
G1 X135.527 Y99.488 E0.00567
G1 X135.659 Y99.750 E0.00712
G1 X135.718 Y100.006 E0.00640
G1 X135.777 Y100.370 E0.00537
