; generated by PrusaSlicer 2.0.0+win64 on 2019-08-17 at 10:29:30

; 

; external perimeters extrusion width = 0.45mm
; perimeters extrusion width = 0.45mm
; infill extrusion width = 0.45mm
; solid infill extrusion width = 0.45mm
; top infill extrusion width = 0.40mm
; first layer extrusion width = 0.42mm

M73 P0 R19
M73 Q0 S19
M201 X1000 Y1000 Z1000 E5000 ; sets maximum accelerations, mm/sec^2
M203 X200 Y200 Z12 E120 ; sets maximum feedrates, mm/sec
M204 P1250 R1250 T1250 ; sets acceleration (P, T) and retract acceleration (R), mm/sec^2
M205 X8.00 Y8.00 Z0.40 E1.50 ; sets the jerk limits, mm/sec
M205 S0 T0 ; sets the minimum extruding and travel feed rate, mm/sec
M107
M115 U3.7.2 ; tell printer latest fw version
G90 ; use absolute coordinates
M83 ; extruder relative mode
M104 S215 ; set extruder temp
M140 S60 ; set bed temp
M190 S60 ; wait for bed temp
M109 S215 ; wait for extruder temp
G28 W ; home all without mesh bed level
G80 ; mesh bed leveling
G1 Y-3.0 F1000.0 ; go outside print area
G92 E0.0
G1 X60.0 E9.0 F1000.0 ; intro line
M73 Q0 S19
M73 P0 R19
G1 X100.0 E12.5 F1000.0 ; intro line
G92 E0.0
M221 S95
M900 K30 ; Filament gcode
G21 ; set units to millimeters
G90 ; use absolute coordinates
M83 ; use relative distances for extrusion
;BEFORE_LAYER_CHANGE
G92 E0.0
;0.2


G1 E-0.80000 F2100.00000
G1 Z0.600 F10800.000
;AFTER_LAYER_CHANGE
;0.2
G1 X116.313 Y99.205
G1 Z0.200
G1 E0.80000 F2100.00000
M204 S1000
G1 F1200
G1 X116.923 Y98.382 E0.03211
G1 X117.615 Y97.617 E0.03234
G1 X118.370 Y96.932 E0.03198
G1 X119.197 Y96.318 E0.03228
G1 X120.095 Y95.781 E0.03280
G1 X120.995 Y95.356 E0.03121
G1 X121.934 Y95.017 E0.03131
G1 X122.952 Y94.760 E0.03291
G1 X123.969 Y94.608 E0.03224
G1 X124.998 Y94.557 E0.03230
G1 X126.012 Y94.607 E0.03184
G1 X127.035 Y94.758 E0.03242
G1 X128.020 Y95.004 E0.03184
G1 X128.995 Y95.352 E0.03245
G1 X130.795 Y96.313 E0.06397
G1 X131.620 Y96.924 E0.03219
G1 X132.379 Y97.611 E0.03209
G1 X133.068 Y98.370 E0.03217
G1 X133.682 Y99.197 E0.03228
G1 X134.645 Y100.998 E0.06403
G1 X134.990 Y101.960 E0.03203
G1 X135.240 Y102.955 E0.03217
G1 X135.392 Y103.970 E0.03219
G1 X135.443 Y104.998 E0.03226
G1 X135.244 Y107.026 E0.06390
G1 X134.995 Y108.025 E0.03229
G1 X134.652 Y108.986 E0.03200
G1 X134.213 Y109.916 E0.03224
G1 X133.687 Y110.795 E0.03211
G1 X133.075 Y111.621 E0.03225
G1 X132.392 Y112.376 E0.03193
G1 X131.631 Y113.067 E0.03221
G1 X130.808 Y113.679 E0.03215
G1 X129.924 Y114.209 E0.03232
G1 X129.004 Y114.645 E0.03192
G1 X128.040 Y114.990 E0.03209
G1 X127.045 Y115.240 E0.03217
G1 X126.030 Y115.392 E0.03219
G1 X125.006 Y115.443 E0.03213
G1 X123.988 Y115.393 E0.03197
G1 X122.974 Y115.244 E0.03213
G1 X121.976 Y114.995 E0.03226
G1 X121.014 Y114.652 E0.03203
G1 X120.090 Y114.216 E0.03204
G1 X119.205 Y113.687 E0.03233
G1 X118.377 Y113.074 E0.03230
G1 X117.617 Y112.385 E0.03216
G1 X116.321 Y110.808 E0.06400
G1 X115.797 Y109.935 E0.03193
G1 X115.357 Y109.007 E0.03221
G1 X115.011 Y108.045 E0.03206
G1 X114.760 Y107.048 E0.03223
G1 X114.608 Y106.024 E0.03244
G1 X114.557 Y104.999 E0.03220
G1 X114.757 Y102.967 E0.06403
G1 X115.004 Y101.980 E0.03190
G1 X115.351 Y101.006 E0.03242
G1 X116.285 Y99.258 E0.06214
G1 X116.616 Y99.434 F10800.000
G1 F1200
G1 X117.881 Y97.885 E0.06272
G1 X119.405 Y96.632 E0.06187
G1 X121.138 Y95.705 E0.06161
G1 X123.024 Y95.130 E0.06183
G1 X124.996 Y94.934 E0.06213
G1 X126.964 Y95.128 E0.06199
G1 X128.849 Y95.699 E0.06176
G1 X130.587 Y96.628 E0.06179
G1 X132.114 Y97.879 E0.06190
G1 X133.368 Y99.405 E0.06193
G1 X134.296 Y101.141 E0.06171
G1 X134.871 Y103.031 E0.06193
G1 X135.066 Y105.000 E0.06205
G1 X134.874 Y106.955 E0.06158
G1 X134.304 Y108.841 E0.06177
G1 X133.375 Y110.584 E0.06194
G1 X132.126 Y112.109 E0.06179
G1 X130.599 Y113.364 E0.06197
G1 X128.861 Y114.296 E0.06184
G1 X126.973 Y114.870 E0.06187
G1 X125.008 Y115.066 E0.06193
G1 X123.049 Y114.875 E0.06171
G1 X121.159 Y114.304 E0.06189
G1 X119.415 Y113.374 E0.06197
G1 X117.885 Y112.119 E0.06206
G1 X116.636 Y110.599 E0.06168
G1 X115.704 Y108.860 E0.06186
G1 X115.130 Y106.976 E0.06177
G1 X114.934 Y105.001 E0.06223
G1 X115.127 Y103.042 E0.06170
G1 X115.701 Y101.148 E0.06205
G1 X116.588 Y99.487 E0.05903
G1 X116.919 Y99.664 F10800.000
G1 F1200
G1 X118.149 Y98.149 E0.06119
G1 X119.617 Y96.944 E0.05955
G1 X121.284 Y96.052 E0.05929
G1 X123.101 Y95.500 E0.05952
G1 X124.998 Y95.312 E0.05980
G1 X126.889 Y95.497 E0.05956
G1 X128.706 Y96.048 E0.05954
G1 X130.377 Y96.940 E0.05937
G1 X131.846 Y98.145 E0.05958
G1 X133.056 Y99.617 E0.05974
G1 X133.949 Y101.287 E0.05939
G1 X134.501 Y103.103 E0.05949
G1 X134.689 Y104.999 E0.05974
G1 X134.504 Y106.880 E0.05926
G1 X133.955 Y108.699 E0.05958
G1 X133.060 Y110.377 E0.05962
G1 X131.857 Y111.844 E0.05948
G1 X130.388 Y113.052 E0.05965
G1 X128.714 Y113.948 E0.05952
G1 X126.897 Y114.501 E0.05955
G1 X125.005 Y114.688 E0.05961
G1 X123.120 Y114.504 E0.05939
G1 X121.301 Y113.955 E0.05958
G1 X119.623 Y113.059 E0.05965
G1 X118.149 Y111.851 E0.05974
G1 X116.948 Y110.388 E0.05936
G1 X116.053 Y108.717 E0.05942
G1 X115.500 Y106.899 E0.05958
G1 X115.311 Y105.002 E0.05979
G1 X115.496 Y103.117 E0.05938
G1 X116.048 Y101.294 E0.05974
G1 X116.890 Y99.717 E0.05604
G1 F8640
G1 X118.149 Y98.149 E-0.46422
G1 X119.139 Y97.337 E-0.29578
G1 E-0.04000 F2100.00000
G1 Z0.800 F10800.000
G1 X122.812 Y103.614
G1 Z0.200
G1 E0.80000 F2100.00000
G1 F1200
G1 X123.124 Y103.214 E0.01592
G1 X123.509 Y102.882 E0.01592
G1 X123.950 Y102.632 E0.01592
G1 X124.433 Y102.473 E0.01592
G1 X124.936 Y102.411 E0.01592
G1 X125.443 Y102.448 E0.01592
G1 X125.932 Y102.584 E0.01592
G1 X126.386 Y102.812 E0.01592
G1 X126.786 Y103.124 E0.01592
G1 X127.117 Y103.509 E0.01592
G1 X127.368 Y103.950 E0.01592
G1 X127.527 Y104.433 E0.01592
G1 X127.589 Y104.936 E0.01592
G1 X127.552 Y105.443 E0.01592
G1 X127.416 Y105.932 E0.01592
G1 X127.188 Y106.386 E0.01592
G1 X126.876 Y106.786 E0.01592
G1 X126.491 Y107.117 E0.01592
G1 X126.050 Y107.368 E0.01592
G1 X125.567 Y107.527 E0.01592
G1 X125.064 Y107.589 E0.01592
G1 X124.557 Y107.552 E0.01592
G1 X124.068 Y107.416 E0.01592
G1 X123.614 Y107.188 E0.01592
G1 X123.214 Y106.876 E0.01592
G1 X122.882 Y106.491 E0.01592
G1 X122.632 Y106.050 E0.01592
G1 X122.473 Y105.567 E0.01592
G1 X122.411 Y105.064 E0.01592
G1 X122.448 Y104.557 E0.01592
G1 X122.584 Y104.068 E0.01592
G1 X122.785 Y103.668 E0.01404
G1 X123.122 Y103.838 F10800.000
G1 F1200
G1 X123.399 Y103.475 E0.01429
G1 X123.727 Y103.192 E0.01359
G1 X124.104 Y102.979 E0.01359
G1 X124.516 Y102.843 E0.01359
G1 X124.946 Y102.790 E0.01359
G1 X125.378 Y102.822 E0.01359
G1 X125.796 Y102.937 E0.01359
G1 X126.183 Y103.132 E0.01359
G1 X126.525 Y103.399 E0.01359
G1 X126.808 Y103.727 E0.01359
G1 X127.021 Y104.104 E0.01359
G1 X127.157 Y104.516 E0.01359
G1 X127.210 Y104.946 E0.01359
G1 X127.178 Y105.378 E0.01359
G1 X127.063 Y105.796 E0.01359
G1 X126.868 Y106.183 E0.01359
G1 X126.601 Y106.525 E0.01359
G1 X126.273 Y106.808 E0.01359
G1 X125.896 Y107.021 E0.01359
G1 X125.484 Y107.157 E0.01359
G1 X125.054 Y107.210 E0.01359
G1 X124.622 Y107.178 E0.01359
G1 X124.204 Y107.063 E0.01359
G1 X123.817 Y106.868 E0.01359
G1 X123.475 Y106.601 E0.01359
G1 X123.192 Y106.273 E0.01359
G1 X122.979 Y105.896 E0.01359
G1 X122.843 Y105.484 E0.01359
G1 X122.790 Y105.054 E0.01359
G1 X122.822 Y104.622 E0.01359
G1 X122.937 Y104.204 E0.01359
G1 X123.095 Y103.891 E0.01099
G1 X122.933 Y103.485 F10800.000
G1 F8640
G1 X123.399 Y103.475 E-0.11890
G1 X123.727 Y103.192 E-0.10009
G1 X124.104 Y102.979 E-0.10008
G1 X124.516 Y102.843 E-0.10009
G1 X124.946 Y102.790 E-0.10008
G1 X125.378 Y102.822 E-0.10008
G1 X125.796 Y102.937 E-0.10008
G1 X125.953 Y103.016 E-0.04061
G1 E-0.04000 F2100.00000
G1 Z0.800 F10800.000
G1 X119.203 Y101.716
G1 Z0.200
G1 E0.80000 F2100.00000
G1 F1200
G1 X119.553 Y101.164 E0.02050
G1 X119.955 Y100.648 E0.02050
G1 X120.406 Y100.175 E0.02050
G1 X120.901 Y99.748 E0.02050
G1 X121.436 Y99.371 E0.02050
G1 X122.005 Y99.049 E0.02050
G1 X122.602 Y98.784 E0.02050
G1 X123.223 Y98.579 E0.02050
G1 X123.861 Y98.436 E0.02050
G1 X124.510 Y98.356 E0.02050
G1 X125.164 Y98.340 E0.02050
G1 X125.816 Y98.388 E0.02050
G1 X126.460 Y98.500 E0.02050
G1 X127.090 Y98.674 E0.02050
G1 X127.700 Y98.909 E0.02050
G1 X128.284 Y99.203 E0.02050
G1 X128.836 Y99.553 E0.02050
G1 X129.352 Y99.955 E0.02050
G1 X129.825 Y100.406 E0.02050
G1 X130.252 Y100.901 E0.02050
G1 X130.629 Y101.436 E0.02050
G1 X130.951 Y102.005 E0.02050
G1 X131.216 Y102.602 E0.02050
G1 X131.421 Y103.223 E0.02050
G1 X131.564 Y103.861 E0.02050
G1 X131.644 Y104.510 E0.02050
G1 X131.660 Y105.163 E0.02050
G1 X131.612 Y105.816 E0.02050
G1 X131.500 Y106.460 E0.02050
G1 X131.326 Y107.090 E0.02050
G1 X131.091 Y107.700 E0.02050
G1 X130.797 Y108.284 E0.02050
G1 X130.447 Y108.836 E0.02050
G1 X130.045 Y109.352 E0.02050
G1 X129.594 Y109.825 E0.02050
G1 X129.099 Y110.252 E0.02050
G1 X128.564 Y110.629 E0.02050
G1 X127.995 Y110.951 E0.02050
G1 X127.398 Y111.216 E0.02050
G1 X126.777 Y111.421 E0.02050
G1 X126.139 Y111.564 E0.02050
G1 X125.490 Y111.644 E0.02050
G1 X124.836 Y111.660 E0.02050
G1 X124.184 Y111.612 E0.02050
G1 X123.540 Y111.500 E0.02050
G1 X122.910 Y111.326 E0.02050
G1 X122.300 Y111.091 E0.02050
G1 X121.716 Y110.797 E0.02050
G1 X121.164 Y110.447 E0.02050
G1 X120.648 Y110.045 E0.02050
G1 X120.175 Y109.594 E0.02050
G1 X119.748 Y109.099 E0.02050
G1 X119.371 Y108.564 E0.02050
G1 X119.049 Y107.995 E0.02050
G1 X118.784 Y107.398 E0.02050
G1 X118.579 Y106.777 E0.02050
G1 X118.436 Y106.139 E0.02050
G1 X118.356 Y105.490 E0.02050
G1 X118.340 Y104.836 E0.02050
G1 X118.388 Y104.184 E0.02050
G1 X118.500 Y103.540 E0.02050
G1 X118.674 Y102.910 E0.02050
G1 X118.909 Y102.300 E0.02050
G1 X119.176 Y101.770 E0.01862
G1 X118.840 Y101.600 F10800.000
G1 F1200
G1 X119.244 Y100.946 E0.02411
G1 X119.669 Y100.402 E0.02166
G1 X120.146 Y99.902 E0.02166
G1 X120.669 Y99.450 E0.02166
G1 X121.234 Y99.052 E0.02166
G1 X121.835 Y98.712 E0.02166
G1 X122.466 Y98.432 E0.02166
G1 X123.122 Y98.215 E0.02166
G1 X123.796 Y98.064 E0.02166
G1 X124.482 Y97.979 E0.02166
G1 X125.173 Y97.962 E0.02166
G1 X125.862 Y98.013 E0.02166
G1 X126.542 Y98.131 E0.02166
G1 X127.208 Y98.316 E0.02166
G1 X127.853 Y98.564 E0.02166
G1 X128.470 Y98.875 E0.02166
G1 X129.054 Y99.244 E0.02166
G1 X129.598 Y99.669 E0.02166
G1 X130.098 Y100.146 E0.02166
G1 X130.550 Y100.669 E0.02166
G1 X130.948 Y101.234 E0.02166
G1 X131.288 Y101.835 E0.02166
G1 X131.568 Y102.466 E0.02166
G1 X131.785 Y103.122 E0.02166
G1 X131.936 Y103.796 E0.02166
G1 X132.021 Y104.482 E0.02166
G1 X132.038 Y105.173 E0.02166
G1 X131.987 Y105.862 E0.02166
G1 X131.869 Y106.542 E0.02166
G1 X131.684 Y107.208 E0.02166
G1 X131.436 Y107.853 E0.02166
G1 X131.125 Y108.470 E0.02166
G1 X130.756 Y109.054 E0.02166
G1 X130.331 Y109.598 E0.02166
G1 X129.854 Y110.098 E0.02166
G1 X129.331 Y110.550 E0.02166
G1 X128.766 Y110.948 E0.02166
G1 X128.165 Y111.288 E0.02166
G1 X127.534 Y111.568 E0.02166
G1 X126.878 Y111.785 E0.02166
G1 X126.204 Y111.936 E0.02166
G1 X125.518 Y112.021 E0.02166
G1 X124.827 Y112.038 E0.02166
G1 X124.138 Y111.987 E0.02166
G1 X123.458 Y111.869 E0.02166
G1 X122.792 Y111.684 E0.02166
G1 X122.147 Y111.436 E0.02166
G1 X121.530 Y111.125 E0.02166
G1 X120.946 Y110.756 E0.02166
G1 X120.402 Y110.331 E0.02166
G1 X119.902 Y109.854 E0.02166
G1 X119.450 Y109.331 E0.02166
G1 X119.052 Y108.766 E0.02166
G1 X118.712 Y108.165 E0.02166
G1 X118.432 Y107.534 E0.02166
G1 X118.215 Y106.878 E0.02166
G1 X118.064 Y106.204 E0.02166
G1 X117.979 Y105.518 E0.02166
G1 X117.962 Y104.827 E0.02166
G1 X118.013 Y104.138 E0.02166
G1 X118.131 Y103.458 E0.02166
G1 X118.316 Y102.792 E0.02166
G1 X118.564 Y102.147 E0.02166
G1 X118.813 Y101.654 E0.01732
G1 X119.239 Y101.594 F10800.000
G1 F8640
G1 X119.244 Y100.946 E-0.19139
G1 X119.669 Y100.402 E-0.15951
G1 X120.146 Y99.902 E-0.15951
G1 X120.669 Y99.450 E-0.15952
G1 X120.988 Y99.226 E-0.09008
G1 E-0.04000 F2100.00000
G1 Z0.800 F10800.000
G1 X119.436 Y108.448
G1 Z0.200
G1 E0.80000 F2100.00000
G1 F1200
G1 X121.537 Y110.549 E0.09543
G1 F8640
G1 X119.436 Y108.448 E-0.68611
G1 E-0.11389 F2100.00000
G1 Z0.800 F10800.000
G1 X122.631 Y111.097
G1 Z0.200
G1 E0.80000 F2100.00000
G1 F1200
G1 X119.223 Y107.689 E0.15478
G1 X119.048 Y107.296 E0.01381
G1 X118.887 Y106.807 E0.01653
G1 X123.190 Y111.110 E0.19543
G1 X123.602 Y111.224 E0.01374
G1 X123.902 Y111.276 E0.00978
G1 X118.715 Y106.088 E0.23561
G1 X118.638 Y105.466 E0.02015
G1 X124.526 Y111.354 E0.26742
G1 X124.843 Y111.377 E0.01022
G1 X125.090 Y111.371 E0.00791
G1 X118.624 Y104.906 E0.29364
G1 X118.656 Y104.391 E0.01655
G1 X125.609 Y111.345 E0.31579
G1 X126.095 Y111.284 E0.01572
G1 X118.722 Y103.911 E0.33485
G1 X118.816 Y103.459 E0.01485
G1 X126.683 Y111.326 E0.35732
G1 F8640
G1 X124.356 Y108.999 E-0.76000
G1 E-0.04000 F2100.00000
G1 Z0.800 F10800.000
G1 X131.048 Y107.497
G1 Z0.200
G1 E0.80000 F2100.00000
G1 F1200
G1 X127.747 Y104.197 E0.14991
G1 X127.804 Y104.370 E0.00587
G1 X127.865 Y104.861 E0.01587
G1 X130.751 Y107.746 E0.13107
G1 X130.568 Y108.110 E0.01306
G1 X127.840 Y105.382 E0.12389
G1 X127.832 Y105.491 E0.00352
G1 X127.739 Y105.827 E0.01119
G1 X130.359 Y108.447 E0.11898
G1 X130.138 Y108.772 E0.01263
G1 X127.587 Y106.222 E0.11585
G1 X127.397 Y106.578 E0.01296
G1 X129.898 Y109.079 E0.11361
G1 X129.640 Y109.367 E0.01242
G1 X127.158 Y106.884 E0.11274
G1 X127.082 Y106.982 E0.00396
G1 X126.881 Y107.155 E0.00849
G1 X129.371 Y109.644 E0.11307
G1 X129.078 Y109.897 E0.01244
G1 X126.575 Y107.395 E0.11364
G1 X126.227 Y107.592 E0.01287
G1 X128.771 Y110.137 E0.11557
G1 X128.451 Y110.363 E0.01259
G1 X125.827 Y107.739 E0.11916
G1 X125.630 Y107.804 E0.00668
G1 X125.377 Y107.835 E0.00817
G1 X128.105 Y110.563 E0.12390
G1 X127.747 Y110.751 E0.01299
G1 X124.853 Y107.857 E0.13145
G1 X124.509 Y107.832 E0.01109
G1 X124.194 Y107.745 E0.01047
G1 X127.369 Y110.919 E0.14417
G1 X126.964 Y111.061 E0.01376
G1 X118.934 Y103.031 E0.36472
G1 X119.084 Y102.634 E0.01361
G1 X122.253 Y105.804 E0.14395
G1 X122.196 Y105.630 E0.00588
G1 X122.135 Y105.139 E0.01586
G1 X119.249 Y102.254 E0.13107
G1 X119.432 Y101.890 E0.01306
G1 X122.160 Y104.618 E0.12389
G1 X122.168 Y104.509 E0.00353
G1 X122.261 Y104.173 E0.01119
G1 X119.641 Y101.553 E0.11898
G1 X119.862 Y101.228 E0.01263
G1 X122.413 Y103.778 E0.11585
G1 X122.603 Y103.422 E0.01296
G1 X120.101 Y100.921 E0.11361
G1 X120.360 Y100.633 E0.01242
G1 X122.842 Y103.116 E0.11274
G1 X122.918 Y103.018 E0.00397
G1 X123.119 Y102.846 E0.00849
G1 X120.629 Y100.356 E0.11307
G1 X120.922 Y100.103 E0.01244
G1 X123.424 Y102.605 E0.11364
G1 X123.773 Y102.408 E0.01287
G1 X121.229 Y99.863 E0.11556
G1 X121.549 Y99.637 E0.01259
G1 X124.173 Y102.261 E0.11916
G1 X124.370 Y102.196 E0.00668
G1 X124.623 Y102.165 E0.00816
G1 X121.894 Y99.437 E0.12390
G1 X122.253 Y99.249 E0.01299
G1 X125.147 Y102.143 E0.13145
G1 X125.491 Y102.168 E0.01109
G1 X125.805 Y102.255 E0.01046
G1 X122.631 Y99.081 E0.14417
G1 X123.035 Y98.939 E0.01376
G1 X131.066 Y106.969 E0.36472
G1 X131.184 Y106.542 E0.01426
G1 X123.459 Y98.816 E0.35087
G1 X123.905 Y98.716 E0.01468
G1 X131.278 Y106.089 E0.33486
G1 X131.344 Y105.609 E0.01556
G1 X124.391 Y98.655 E0.31579
G1 X124.910 Y98.629 E0.01671
G1 X131.376 Y105.094 E0.29364
G1 X131.362 Y104.534 E0.01799
G1 X125.474 Y98.646 E0.26742
G1 X125.781 Y98.669 E0.00989
G1 X126.098 Y98.724 E0.01032
G1 X131.285 Y103.912 E0.23562
G1 X131.113 Y103.193 E0.02373
G1 X126.810 Y98.890 E0.19544
G1 X127.001 Y98.943 E0.00636
G1 X127.684 Y99.218 E0.02366
G1 X131.111 Y102.644 E0.15561
G1 F8640
G1 X128.783 Y100.317 E-0.76000
G1 E-0.04000 F2100.00000
G1 Z0.800 F10800.000
G1 X130.565 Y101.552
G1 Z0.200
G1 E0.80000 F2100.00000
G1 F1200
G1 X128.463 Y99.451 E0.09545
M106 S255
;BEFORE_LAYER_CHANGE
G92 E0.0
;0.35


G1 F8640
G1 X130.565 Y101.552 E-0.68624
G1 E-0.11376 F2100.00000
G1 Z0.800 F10800.000
;AFTER_LAYER_CHANGE
;0.35
M104 S210 ; set temperature
G1 X133.682 Y99.197
G1 Z0.350
G1 E0.80000 F2100.00000
G1 F1505
G1 X134.645 Y100.998 E0.04939
G1 X134.990 Y101.960 E0.02471
G1 X135.240 Y102.955 E0.02482
G1 X135.392 Y103.970 E0.02483
G1 X135.443 Y104.998 E0.02488
G1 X135.244 Y107.026 E0.04929
G1 X134.995 Y108.025 E0.02491
G1 X134.652 Y108.986 E0.02468
G1 X134.213 Y109.916 E0.02486
