; generated by PrusaSlicer 2.0.0+win64 on 2019-08-17 at 10:30:47

; 

; external perimeters extrusion width = 0.45mm
; perimeters extrusion width = 0.45mm
; infill extrusion width = 0.45mm
; solid infill extrusion width = 0.45mm
; top infill extrusion width = 0.40mm
; first layer extrusion width = 0.42mm

M73 P0 R18
M73 Q0 S18
M201 X1000 Y1000 Z1000 E5000 ; sets maximum accelerations, mm/sec^2
M203 X200 Y200 Z12 E120 ; sets maximum feedrates, mm/sec
M204 P1250 R1250 T1250 ; sets acceleration (P, T) and retract acceleration (R), mm/sec^2
M205 X8.00 Y8.00 Z0.40 E1.50 ; sets the jerk limits, mm/sec
M205 S0 T0 ; sets the minimum extruding and travel feed rate, mm/sec
M107
M115 U3.7.2 ; tell printer latest fw version
G90 ; use absolute coordinates
M83 ; extruder relative mode
M104 S215 ; set extruder temp
M140 S60 ; set bed temp
M190 S60 ; wait for bed temp
M109 S215 ; wait for extruder temp
G28 W ; home all without mesh bed level
G80 ; mesh bed leveling
G1 Y-3.0 F1000.0 ; go outside print area
G92 E0.0
G1 X60.0 E9.0 F1000.0 ; intro line
M73 Q0 S18
M73 P0 R18
G1 X100.0 E12.5 F1000.0 ; intro line
G92 E0.0
M221 S95
M900 K30 ; Filament gcode
G21 ; set units to millimeters
G90 ; use absolute coordinates
M83 ; use relative distances for extrusion
;BEFORE_LAYER_CHANGE
G92 E0.0
;0.2


G1 E-0.80000 F2100.00000
G1 Z0.600 F10800.000
;AFTER_LAYER_CHANGE
;0.2
G1 X113.340 Y96.743
G1 Z0.200
G1 E0.80000 F2100.00000
M204 S1000
G1 F1200
G1 X114.071 Y96.063 E0.03129
G1 X114.641 Y95.701 E0.02117
G1 X115.258 Y95.427 E0.02119
G1 X115.909 Y95.247 E0.02118
G1 X116.593 Y95.165 E0.02160
G1 X136.550 Y95.160 E0.62572
G1 X137.349 Y95.232 E0.02515
G1 X138.159 Y95.455 E0.02633
G1 X138.881 Y95.803 E0.02514
G1 X139.528 Y96.269 E0.02501
G1 X140.078 Y96.833 E0.02469
G1 X140.534 Y97.503 E0.02542
G1 X140.874 Y98.271 E0.02634
G1 X141.062 Y99.052 E0.02519
G1 X141.077 Y110.405 E0.35596
G1 X140.875 Y111.298 E0.02871
G1 X140.480 Y112.163 E0.02979
G1 X139.938 Y112.902 E0.02873
G1 X139.270 Y113.510 E0.02835
G1 X138.083 Y114.145 E0.04222
G1 X137.433 Y114.325 E0.02114
G1 X136.750 Y114.407 E0.02156
G1 X116.609 Y114.408 E0.63152
G1 X115.473 Y114.216 E0.03612
G1 X114.344 Y113.719 E0.03866
G1 X113.753 Y113.293 E0.02285
G1 X113.131 Y112.569 E0.02992
G1 X112.508 Y111.413 E0.04117
G1 X112.242 Y110.170 E0.03987
G1 X112.237 Y99.483 E0.33507
G1 X112.396 Y98.506 E0.03103
G1 X112.771 Y97.570 E0.03162
G1 X113.306 Y96.792 E0.02960
G1 F8640
G1 X114.071 Y96.063 E-0.24395
G1 X114.641 Y95.701 E-0.15590
G1 X115.258 Y95.427 E-0.15602
G1 X115.909 Y95.247 E-0.15601
G1 X116.116 Y95.222 E-0.04811
G1 E-0.04000 F2100.00000
G1 Z0.800 F10800.000
G1 X115.455 Y95.758
G1 Z0.200
G1 E0.80000 F2100.00000
G1 F1200
G1 X116.667 Y95.540 E0.03861
G1 X136.550 Y95.537 E0.62342
G1 X137.281 Y95.603 E0.02303
G1 X138.027 Y95.808 E0.02426
G1 X138.690 Y96.128 E0.02307
G1 X139.287 Y96.558 E0.02307
G1 X139.796 Y97.084 E0.02296
G1 X140.229 Y97.731 E0.02440
G1 X140.523 Y98.411 E0.02323
G1 X140.691 Y99.125 E0.02299
G1 X140.705 Y110.347 E0.35186
G1 X140.517 Y111.177 E0.02670
G1 X140.152 Y111.976 E0.02754
G1 X139.652 Y112.656 E0.02647
G1 X139.025 Y113.222 E0.02647
G1 X137.889 Y113.813 E0.04017
G1 X136.676 Y114.032 E0.03866
G1 X116.671 Y114.033 E0.62722
G1 X115.587 Y113.856 E0.03444
G1 X114.525 Y113.388 E0.03639
G1 X114.001 Y113.008 E0.02029
G1 X113.417 Y112.321 E0.02826
G1 X112.854 Y111.262 E0.03763
G1 X112.615 Y110.086 E0.03763
G1 X112.613 Y99.508 E0.33165
G1 X112.760 Y98.605 E0.02869
G1 X113.107 Y97.743 E0.02914
G1 X113.629 Y96.985 E0.02887
G1 X114.317 Y96.350 E0.02933
G1 X115.401 Y95.786 E0.03833
G1 F8640
G1 X116.667 Y95.540 E-0.29762
G1 X118.669 Y95.539 E-0.46238
G1 E-0.04000 F2100.00000
G1 Z0.800 F10800.000
G1 X118.187 Y106.629
G1 Z0.200
G1 E0.80000 F2100.00000
G1 F1200
G1 X118.617 Y106.576 E0.01359
G1 X119.049 Y106.608 E0.01359
G1 X119.467 Y106.723 E0.01359
G1 X119.854 Y106.918 E0.01361
G1 X120.196 Y107.185 E0.01359
G1 X120.479 Y107.513 E0.01358
G1 X120.693 Y107.890 E0.01359
G1 X120.828 Y108.302 E0.01359
G1 X120.881 Y108.732 E0.01359
G1 X120.850 Y109.164 E0.01359
G1 X120.734 Y109.582 E0.01359
G1 X120.539 Y109.969 E0.01359
G1 X120.272 Y110.311 E0.01359
G1 X119.944 Y110.594 E0.01359
G1 X119.567 Y110.807 E0.01359
G1 X119.156 Y110.943 E0.01359
G1 X118.725 Y110.996 E0.01359
G1 X118.293 Y110.964 E0.01359
G1 X117.876 Y110.849 E0.01358
G1 X117.488 Y110.654 E0.01359
G1 X117.147 Y110.388 E0.01359
G1 X116.864 Y110.060 E0.01359
G1 X116.650 Y109.683 E0.01359
G1 X116.514 Y109.271 E0.01359
G1 X116.461 Y108.841 E0.01359
G1 X116.492 Y108.409 E0.01358
G1 X116.608 Y107.992 E0.01357
G1 X116.802 Y107.605 E0.01358
G1 X117.071 Y107.260 E0.01371
G1 X117.399 Y106.978 E0.01357
G1 X117.775 Y106.765 E0.01355
G1 X118.130 Y106.647 E0.01171
G1 X118.306 Y106.247 F10800.000
G1 F8640
G1 X118.617 Y106.576 E-0.11371
G1 X119.049 Y106.608 E-0.10009
G1 X119.467 Y106.723 E-0.10007
G1 X119.854 Y106.918 E-0.10020
G1 X120.196 Y107.185 E-0.10005
G1 X120.479 Y107.513 E-0.10004
G1 X120.693 Y107.890 E-0.10008
G1 X120.755 Y108.078 E-0.04578
G1 E-0.04000 F2100.00000
G1 Z0.800 F10800.000
G1 X118.293 Y102.964
G1 Z0.200
G1 E0.80000 F2100.00000
G1 F1200
G1 X117.875 Y102.849 E0.01359
G1 X117.488 Y102.654 E0.01360
G1 X117.146 Y102.387 E0.01358
G1 X116.863 Y102.059 E0.01359
G1 X116.650 Y101.682 E0.01359
G1 X116.514 Y101.271 E0.01358
G1 X116.461 Y100.841 E0.01358
G1 X116.493 Y100.409 E0.01359
G1 X116.608 Y99.991 E0.01358
G1 X116.803 Y99.604 E0.01359
G1 X117.069 Y99.262 E0.01359
G1 X117.397 Y98.979 E0.01358
G1 X117.774 Y98.765 E0.01359
G1 X118.185 Y98.629 E0.01359
G1 X118.619 Y98.576 E0.01372
G1 X119.047 Y98.607 E0.01346
G1 X119.465 Y98.722 E0.01358
G1 X119.852 Y98.917 E0.01359
G1 X120.197 Y99.186 E0.01372
G1 X120.480 Y99.515 E0.01358
G1 X120.693 Y99.892 E0.01359
G1 X120.829 Y100.304 E0.01359
G1 X120.882 Y100.734 E0.01359
G1 X120.849 Y101.166 E0.01359
G1 X120.733 Y101.583 E0.01359
G1 X120.538 Y101.970 E0.01358
G1 X120.271 Y102.312 E0.01359
G1 X119.943 Y102.594 E0.01358
G1 X119.567 Y102.807 E0.01355
G1 X119.155 Y102.943 E0.01359
G1 X118.725 Y102.996 E0.01359
G1 X118.353 Y102.969 E0.01171
G1 X118.037 Y103.272 F10800.000
G1 F8640
G1 X117.875 Y102.849 E-0.11367
G1 X117.488 Y102.654 E-0.10018
G1 X117.146 Y102.387 E-0.10003
G1 X116.863 Y102.059 E-0.10006
G1 X116.650 Y101.682 E-0.10006
G1 X116.514 Y101.271 E-0.10000
G1 X116.461 Y100.841 E-0.10002
G1 X116.475 Y100.642 E-0.04599
G1 E-0.04000 F2100.00000
G1 Z0.800 F10800.000
G1 X117.366 Y98.563
G1 Z0.200
G1 E0.80000 F2100.00000
G1 F1200
G1 X117.178 Y98.669 E0.00676
G1 X116.794 Y99.001 E0.01591
G1 X116.482 Y99.401 E0.01592
G1 X116.254 Y99.855 E0.01591
G1 X116.119 Y100.344 E0.01591
G1 X116.082 Y100.850 E0.01592
G1 X116.144 Y101.354 E0.01591
G1 X116.303 Y101.836 E0.01591
G1 X116.554 Y102.277 E0.01592
G1 X116.885 Y102.662 E0.01592
G1 X117.285 Y102.974 E0.01591
G1 X117.739 Y103.202 E0.01593
G1 X118.228 Y103.338 E0.01592
G1 X118.735 Y103.375 E0.01592
G1 X119.238 Y103.313 E0.01592
G1 X119.721 Y103.154 E0.01592
G1 X120.161 Y102.904 E0.01588
G1 X120.546 Y102.573 E0.01591
G1 X120.858 Y102.173 E0.01592
G1 X121.087 Y101.720 E0.01590
G1 X121.223 Y101.231 E0.01592
G1 X121.260 Y100.725 E0.01591
G1 X121.199 Y100.221 E0.01591
G1 X121.040 Y99.739 E0.01591
G1 X120.790 Y99.297 E0.01592
G1 X120.459 Y98.912 E0.01592
G1 X120.055 Y98.597 E0.01606
G1 X119.988 Y98.563 E0.00235
G1 X133.365 Y98.564 E0.41943
G1 X133.179 Y98.669 E0.00673
G1 X132.794 Y99.001 E0.01591
G1 X132.482 Y99.402 E0.01592
G1 X132.254 Y99.855 E0.01592
G1 X132.119 Y100.344 E0.01592
G1 X132.082 Y100.850 E0.01591
G1 X132.144 Y101.354 E0.01590
G1 X132.303 Y101.836 E0.01591
G1 X132.554 Y102.277 E0.01592
G1 X132.885 Y102.662 E0.01592
G1 X133.285 Y102.974 E0.01591
G1 X133.739 Y103.202 E0.01593
G1 X134.228 Y103.338 E0.01592
G1 X134.735 Y103.375 E0.01592
G1 X135.238 Y103.313 E0.01592
G1 X135.721 Y103.154 E0.01592
G1 X136.161 Y102.904 E0.01587
G1 X136.546 Y102.573 E0.01591
G1 X136.858 Y102.173 E0.01592
G1 X137.087 Y101.720 E0.01592
G1 X137.223 Y101.231 E0.01592
G1 X137.260 Y100.725 E0.01591
G1 X137.199 Y100.221 E0.01592
G1 X137.040 Y99.739 E0.01591
G1 X136.790 Y99.296 E0.01593
G1 X136.455 Y98.909 E0.01605
G1 X136.055 Y98.597 E0.01593
G1 X135.989 Y98.564 E0.00231
G1 X136.553 Y98.564 E0.01769
G1 X136.804 Y98.595 E0.00793
G1 X136.987 Y98.653 E0.00602
G1 X137.194 Y98.763 E0.00736
G1 X137.344 Y98.883 E0.00602
G1 X137.497 Y99.061 E0.00736
G1 X137.595 Y99.230 E0.00613
G1 X137.664 Y99.413 E0.00613
G1 X137.704 Y99.648 E0.00747
G1 X137.704 Y109.935 E0.32255
G1 X137.653 Y110.196 E0.00835
G1 X137.534 Y110.455 E0.00892
G1 X137.368 Y110.667 E0.00847
G1 X137.261 Y110.762 E0.00447
G1 X136.987 Y110.921 E0.00992
G1 X136.685 Y110.999 E0.00980
G1 X135.976 Y111.009 E0.02222
G1 X136.162 Y110.903 E0.00671
G1 X136.547 Y110.572 E0.01592
G1 X136.859 Y110.172 E0.01592
G1 X137.087 Y109.718 E0.01592
G1 X137.223 Y109.229 E0.01592
G1 X137.260 Y108.723 E0.01592
G1 X137.198 Y108.219 E0.01592
G1 X137.039 Y107.737 E0.01592
G1 X136.789 Y107.295 E0.01592
G1 X136.457 Y106.911 E0.01591
G1 X136.057 Y106.598 E0.01592
G1 X135.603 Y106.370 E0.01594
G1 X135.114 Y106.234 E0.01592
G1 X134.608 Y106.197 E0.01592
G1 X134.104 Y106.259 E0.01592
G1 X133.622 Y106.418 E0.01592
G1 X133.181 Y106.668 E0.01587
G1 X132.797 Y106.999 E0.01590
G1 X132.482 Y107.402 E0.01605
G1 X132.254 Y107.856 E0.01592
G1 X132.119 Y108.345 E0.01590
G1 X132.082 Y108.851 E0.01591
G1 X132.144 Y109.354 E0.01591
G1 X132.304 Y109.836 E0.01592
G1 X132.554 Y110.278 E0.01592
G1 X132.886 Y110.662 E0.01591
G1 X133.286 Y110.974 E0.01592
G1 X133.354 Y111.009 E0.00241
G1 X119.977 Y111.008 E0.41944
G1 X120.162 Y110.903 E0.00668
G1 X120.547 Y110.572 E0.01592
G1 X120.859 Y110.172 E0.01592
G1 X121.087 Y109.718 E0.01592
G1 X121.223 Y109.229 E0.01592
G1 X121.260 Y108.723 E0.01592
G1 X121.198 Y108.219 E0.01592
G1 X121.039 Y107.737 E0.01592
G1 X120.789 Y107.295 E0.01592
G1 X120.457 Y106.910 E0.01591
G1 X120.057 Y106.598 E0.01592
G1 X119.603 Y106.370 E0.01594
G1 X119.114 Y106.234 E0.01592
G1 X118.608 Y106.197 E0.01592
G1 X118.104 Y106.259 E0.01592
G1 X117.622 Y106.418 E0.01592
G1 X117.181 Y106.668 E0.01588
G1 X116.797 Y106.999 E0.01590
G1 X116.482 Y107.402 E0.01604
G1 X116.254 Y107.856 E0.01592
G1 X116.119 Y108.345 E0.01590
G1 X116.082 Y108.850 E0.01591
G1 X116.144 Y109.354 E0.01592
G1 X116.304 Y109.836 E0.01592
G1 X116.554 Y110.278 E0.01592
G1 X116.886 Y110.662 E0.01592
G1 X117.286 Y110.974 E0.01592
G1 X117.354 Y111.008 E0.00238
G1 X116.626 Y110.995 E0.02283
G1 X116.322 Y110.906 E0.00992
G1 X116.199 Y110.842 E0.00435
G1 X115.975 Y110.667 E0.00892
G1 X115.802 Y110.446 E0.00880
G1 X115.676 Y110.156 E0.00992
G1 X115.634 Y109.864 E0.00926
G1 X115.635 Y99.673 E0.31954
G1 X115.684 Y99.389 E0.00903
G1 X115.800 Y99.129 E0.00892
G1 X115.975 Y98.904 E0.00892
G1 X116.196 Y98.732 E0.00881
G1 X116.355 Y98.651 E0.00558
G1 X116.657 Y98.573 E0.00980
G1 X117.306 Y98.563 E0.02034
G1 F8640
G1 X117.178 Y98.669 E-0.03835
G1 X116.794 Y99.001 E-0.11716
G1 X116.482 Y99.401 E-0.11721
G1 X116.254 Y99.855 E-0.11719
G1 X116.119 Y100.344 E-0.11718
G1 X116.082 Y100.850 E-0.11722
G1 X116.144 Y101.354 E-0.11716
G1 X116.169 Y101.430 E-0.01852
G1 E-0.04000 F2100.00000
G1 Z0.800 F10800.000
G1 X132.492 Y100.409
G1 Z0.200
G1 E0.80000 F2100.00000
G1 F1200
G1 X132.608 Y99.991 E0.01359
G1 X132.802 Y99.604 E0.01359
G1 X133.069 Y99.262 E0.01359
G1 X133.397 Y98.979 E0.01358
G1 X133.774 Y98.765 E0.01359
G1 X134.185 Y98.629 E0.01359
G1 X134.619 Y98.576 E0.01371
G1 X135.047 Y98.607 E0.01346
G1 X135.465 Y98.722 E0.01359
G1 X135.852 Y98.917 E0.01358
G1 X136.194 Y99.183 E0.01359
G1 X136.480 Y99.514 E0.01371
G1 X136.693 Y99.892 E0.01359
G1 X136.829 Y100.303 E0.01359
G1 X136.882 Y100.734 E0.01359
G1 X136.849 Y101.166 E0.01358
G1 X136.733 Y101.583 E0.01359
G1 X136.538 Y101.970 E0.01359
G1 X136.271 Y102.312 E0.01359
G1 X135.943 Y102.594 E0.01358
G1 X135.567 Y102.807 E0.01355
G1 X135.155 Y102.943 E0.01359
G1 X134.725 Y102.996 E0.01359
G1 X134.293 Y102.964 E0.01359
G1 X133.875 Y102.849 E0.01359
G1 X133.488 Y102.654 E0.01360
G1 X133.146 Y102.387 E0.01358
G1 X132.863 Y102.059 E0.01359
G1 X132.650 Y101.682 E0.01359
G1 X132.514 Y101.271 E0.01358
G1 X132.461 Y100.841 E0.01358
G1 X132.488 Y100.469 E0.01170
G1 X132.185 Y100.153 F10800.000
G1 F8640
G1 X132.608 Y99.991 E-0.11370
G1 X132.802 Y99.604 E-0.10007
G1 X133.069 Y99.262 E-0.10009
G1 X133.397 Y98.979 E-0.10004
G1 X133.774 Y98.765 E-0.10006
G1 X134.185 Y98.629 E-0.10008
G1 X134.619 Y98.576 E-0.10099
G1 X134.814 Y98.590 E-0.04498
G1 E-0.04000 F2100.00000
G1 Z0.800 F10800.000
G1 X134.187 Y106.629
G1 Z0.200
G1 E0.80000 F2100.00000
G1 F1200
G1 X134.617 Y106.576 E0.01359
G1 X135.049 Y106.608 E0.01359
G1 X135.467 Y106.723 E0.01359
G1 X135.854 Y106.918 E0.01361
G1 X136.196 Y107.185 E0.01359
G1 X136.479 Y107.513 E0.01358
G1 X136.693 Y107.890 E0.01359
G1 X136.828 Y108.302 E0.01359
G1 X136.881 Y108.732 E0.01359
G1 X136.850 Y109.164 E0.01359
G1 X136.734 Y109.582 E0.01359
G1 X136.539 Y109.969 E0.01359
G1 X136.272 Y110.311 E0.01359
G1 X135.944 Y110.594 E0.01359
G1 X135.567 Y110.807 E0.01359
G1 X135.156 Y110.943 E0.01359
G1 X134.725 Y110.996 E0.01359
G1 X134.293 Y110.964 E0.01359
G1 X133.876 Y110.849 E0.01359
G1 X133.488 Y110.654 E0.01359
G1 X133.147 Y110.388 E0.01359
G1 X132.864 Y110.060 E0.01358
G1 X132.650 Y109.683 E0.01359
G1 X132.514 Y109.271 E0.01359
G1 X132.461 Y108.841 E0.01358
G1 X132.492 Y108.409 E0.01358
G1 X132.608 Y107.992 E0.01357
G1 X132.802 Y107.605 E0.01358
G1 X133.071 Y107.260 E0.01371
G1 X133.399 Y106.978 E0.01357
G1 X133.775 Y106.765 E0.01355
G1 X134.130 Y106.647 E0.01171
G1 X134.306 Y106.247 F10800.000
G1 F8640
G1 X134.617 Y106.576 E-0.11371
G1 X135.049 Y106.608 E-0.10009
G1 X135.467 Y106.723 E-0.10006
G1 X135.854 Y106.918 E-0.10020
G1 X136.196 Y107.185 E-0.10007
G1 X136.479 Y107.513 E-0.10003
G1 X136.693 Y107.890 E-0.10008
G1 X136.755 Y108.078 E-0.04578
G1 E-0.04000 F2100.00000
G1 Z0.800 F10800.000
G1 X138.056 Y110.146
G1 Z0.200
G1 E0.80000 F2100.00000
G1 F1200
G1 X138.009 Y110.324 E0.00576
G1 X137.864 Y110.642 E0.01096
G1 X137.635 Y110.935 E0.01166
G1 X137.493 Y111.060 E0.00592
G1 X137.339 Y111.166 E0.00588
G1 X137.134 Y111.269 E0.00718
G1 X136.958 Y111.329 E0.00584
G1 X136.733 Y111.374 E0.00718
G1 X136.538 Y111.386 E0.00613
G1 X116.762 Y111.385 E0.62007
G1 X116.387 Y111.330 E0.01190
G1 X116.171 Y111.253 E0.00718
G1 X115.849 Y111.060 E0.01178
G1 X115.707 Y110.935 E0.00592
G1 X115.476 Y110.639 E0.01178
G1 X115.373 Y110.434 E0.00718
G1 X115.312 Y110.257 E0.00588
G1 X115.257 Y109.880 E0.01194
G1 X115.258 Y99.652 E0.32070
G1 X115.279 Y99.463 E0.00596
G1 X115.389 Y99.102 E0.01182
G1 X115.582 Y98.779 E0.01182
G1 X115.707 Y98.637 E0.00592
G1 X116.004 Y98.406 E0.01178
G1 X116.208 Y98.303 E0.00718
G1 X116.384 Y98.243 E0.00584
G1 X116.609 Y98.198 E0.00718
G1 X116.804 Y98.186 E0.00613
G1 X136.576 Y98.187 E0.61995
G1 X136.885 Y98.225 E0.00974
G1 X137.134 Y98.304 E0.00820
G1 X137.402 Y98.447 E0.00954
G1 X137.606 Y98.610 E0.00820
G1 X137.805 Y98.841 E0.00954
G1 X137.938 Y99.068 E0.00824
G1 X138.029 Y99.314 E0.00824
G1 X138.081 Y99.615 E0.00958
G1 X138.081 Y109.960 E0.32436
G1 X138.064 Y110.087 E0.00400
G1 X137.884 Y110.209 F10800.000
G1 X137.388 Y109.820
G1 F1200
G1 X137.412 Y109.639 E0.00390
G1 X137.437 Y109.457 E0.00315
G1 X137.462 Y109.276 E0.00240
G1 X137.483 Y108.720 E0.00500
G1 X137.448 Y108.156 E0.00312
G1 X137.369 Y107.664 E0.00726
G1 X137.474 Y107.533 F10800.000
G1 F1200
G1 X128.787 Y98.846 E0.38821
G1 X129.325 Y98.846 E0.01698
G1 X131.863 Y101.384 E0.11344
G1 X131.803 Y100.787 E0.01897
G1 X129.862 Y98.846 E0.08674
G1 X130.400 Y98.846 E0.01698
G1 X131.841 Y100.288 E0.06443
G1 X131.958 Y99.867 E0.01381
G1 X130.937 Y98.846 E0.04561
G1 X131.475 Y98.846 E0.01698
G1 X132.120 Y99.492 E0.02885
G1 X132.242 Y99.250 E0.00857
G1 X132.318 Y99.152 E0.00391
G1 X132.012 Y98.846 E0.01367
G1 X132.550 Y98.846 E0.01698
G1 X132.674 Y98.971 E0.00558
G1 X133.582 Y98.647 F10800.000
G1 F1200
G1 X133.656 Y98.487 E0.00270
G1 X133.897 Y98.448 E0.00375
G1 X134.320 Y98.399 E0.00246
G1 X135.076 Y98.397 F10800.000
G1 F1200
G1 X135.236 Y98.419 E0.00123
G1 X135.396 Y98.440 E0.00178
