; generated by PrusaSlicer 2.0.0+win64 on 2019-10-05 at 13:06:50

; 

; external perimeters extrusion width = 0.45mm
; perimeters extrusion width = 0.45mm
; infill extrusion width = 0.45mm
; solid infill extrusion width = 0.45mm
; top infill extrusion width = 0.40mm
; support material extrusion width = 0.35mm
; first layer extrusion width = 0.42mm

M73 P0 R31
M73 Q0 S31
M201 X1000 Y1000 Z1000 E5000 ; sets maximum accelerations, mm/sec^2
M203 X200 Y200 Z12 E120 ; sets maximum feedrates, mm/sec
M204 P1250 R1250 T1250 ; sets acceleration (P, T) and retract acceleration (R), mm/sec^2
M205 X8.00 Y8.00 Z0.40 E1.50 ; sets the jerk limits, mm/sec
M205 S0 T0 ; sets the minimum extruding and travel feed rate, mm/sec
M107
M115 U3.7.2 ; tell printer latest fw version
G90 ; use absolute coordinates
M83 ; extruder relative mode
M104 S215 ; set extruder temp
M140 S60 ; set bed temp
M190 S60 ; wait for bed temp
M109 S215 ; wait for extruder temp
G28 W ; home all without mesh bed level
G80 ; mesh bed leveling
G1 Y-3.0 F1000.0 ; go outside print area
G92 E0.0
G1 X60.0 E9.0 F1000.0 ; intro line
M73 Q0 S31
M73 P0 R31
G1 X100.0 E12.5 F1000.0 ; intro line
G92 E0.0
M221 S95
M900 K30 ; Filament gcode
G21 ; set units to millimeters
G90 ; use absolute coordinates
M83 ; use relative distances for extrusion
;BEFORE_LAYER_CHANGE
G92 E0.0
;0.2


G1 E-0.80000 F2100.00000
G1 Z0.600 F10800.000
;AFTER_LAYER_CHANGE
;0.2
G1 X108.480 Y102.191
G1 Z0.200
G1 E0.80000 F2100.00000
M204 S1000
G1 F1200
G1 X109.349 Y101.633 E0.03238
G1 X110.149 Y101.346 E0.02665
G1 X138.806 Y94.448 E0.92419
G1 X154.988 Y94.422 E0.50736
G1 X167.275 Y94.603 E0.38529
G1 X167.828 Y94.734 E0.01783
G1 X168.332 Y95.005 E0.01794
G1 X168.745 Y95.395 E0.01783
G1 X169.046 Y95.882 E0.01794
G1 X169.239 Y96.764 E0.02833
G1 X169.237 Y121.517 E0.77608
G1 X169.135 Y122.098 E0.01851
G1 X168.880 Y122.634 E0.01862
G1 X168.492 Y123.079 E0.01851
G1 X168.000 Y123.405 E0.01851
G1 X167.538 Y123.566 E0.01532
G1 X167.053 Y123.621 E0.01532
G1 X151.199 Y123.621 E0.49710
G1 X138.930 Y123.441 E0.38472
G1 X110.359 Y119.642 E0.90371
G1 X109.446 Y119.353 E0.03001
G1 X108.591 Y118.839 E0.03128
G1 X107.911 Y118.175 E0.02979
G1 X107.381 Y117.340 E0.03101
G1 X107.092 Y116.533 E0.02690
G1 X106.972 Y115.651 E0.02791
G1 X107.002 Y104.897 E0.33719
G1 X107.252 Y103.901 E0.03218
G1 X107.746 Y102.982 E0.03274
G1 X108.439 Y102.235 E0.03194
G1 F8640
G1 X109.349 Y101.633 E-0.25192
G1 X110.149 Y101.346 E-0.19626
G1 X111.462 Y101.030 E-0.31182
G1 E-0.04000 F2100.00000
G1 Z0.800 F10800.000
G1 X139.147 Y96.610
G1 Z0.200
G1 E0.80000 F2100.00000
G1 F1200
G1 X139.147 Y106.089 E0.29722
G1 X139.796 Y106.174 E0.02053
G1 X139.901 Y106.621 E0.01439
G1 X139.901 Y96.780 E0.30857
G1 X140.655 Y96.780 E0.02365
G1 X140.655 Y108.255 E0.35979
G1 X140.996 Y108.707 E0.01776
G1 X141.000 Y103.918 E0.15016
G1 X141.036 Y103.627 E0.00920
G1 X141.128 Y103.279 E0.01130
G1 X141.244 Y103.002 E0.00940
G1 X141.409 Y102.717 E0.01033
G1 X141.409 Y96.780 E0.18617
G1 X142.163 Y96.780 E0.02365
G1 X142.163 Y101.994 E0.16348
G1 X142.252 Y101.931 E0.00339
G1 X142.698 Y102.163 E0.01575
G1 X142.701 Y105.255 E0.09694
G1 X142.761 Y105.695 E0.01392
G1 X142.917 Y106.171 E0.01573
G1 X142.917 Y96.780 E0.29446
G1 X143.672 Y96.780 E0.02365
G1 X143.672 Y107.150 E0.32515
G1 X143.900 Y107.313 E0.00881
G1 X144.121 Y107.438 E0.00796
G1 X144.426 Y107.568 E0.01037
G1 X144.426 Y96.780 E0.33824
G1 X145.180 Y96.780 E0.02365
G1 X145.180 Y107.712 E0.34277
G1 X145.538 Y107.702 E0.01122
G1 X145.934 Y107.631 E0.01263
G1 X145.934 Y96.780 E0.34024
G1 X146.688 Y96.780 E0.02365
G1 X146.688 Y107.300 E0.32985
G1 X146.925 Y107.127 E0.00918
G1 X147.113 Y106.957 E0.00796
G1 X147.283 Y106.769 E0.00796
G1 X147.442 Y106.553 E0.00840
G1 X147.442 Y96.780 E0.30643
G1 X148.197 Y96.780 E0.02365
G1 X148.197 Y101.654 E0.15284
G1 X148.951 Y101.654 E0.02365
G1 X148.951 Y96.780 E0.15284
G1 X149.705 Y96.780 E0.02365
G1 X149.705 Y101.654 E0.15284
G1 X150.459 Y101.654 E0.02365
G1 X150.459 Y96.780 E0.15284
G1 X151.213 Y96.780 E0.02365
G1 X151.213 Y101.824 E0.15816
G1 F8640
G1 X151.213 Y98.533 E-0.76000
G1 E-0.04000 F2100.00000
G1 Z0.800 F10800.000
G1 X154.984 Y96.610
G1 Z0.200
G1 E0.80000 F2100.00000
G1 F1200
G1 X154.984 Y101.654 E0.15816
G1 X155.738 Y101.654 E0.02365
G1 X155.738 Y96.780 E0.15284
G1 X156.492 Y96.780 E0.02365
G1 X156.492 Y101.654 E0.15284
G1 X157.246 Y101.654 E0.02365
G1 X157.246 Y96.780 E0.15284
G1 X158.001 Y96.780 E0.02365
G1 X158.001 Y101.654 E0.15284
G1 X158.455 Y101.654 E0.01426
G1 X158.698 Y101.897 E0.01074
G1 X158.698 Y105.191 E0.10331
G1 X158.755 Y105.667 E0.01503
G1 X158.755 Y96.780 E0.27866
G1 X159.509 Y96.780 E0.02365
G1 X159.509 Y107.009 E0.32072
G1 X159.847 Y107.278 E0.01356
G1 X160.263 Y107.504 E0.01484
G1 X160.263 Y96.780 E0.33625
G1 X161.017 Y96.780 E0.02365
G1 X161.017 Y107.700 E0.34241
G1 X161.221 Y107.714 E0.00639
G1 X161.474 Y107.707 E0.00796
G1 X161.771 Y107.668 E0.00939
G1 X161.771 Y96.780 E0.34139
G1 X162.526 Y96.780 E0.02365
G1 X162.526 Y107.397 E0.33289
G1 X162.925 Y107.127 E0.01510
G1 X163.280 Y106.773 E0.01572
G1 X163.280 Y96.780 E0.31333
G1 X164.034 Y96.780 E0.02365
G1 X164.034 Y102.078 E0.16613
G1 X164.316 Y101.931 E0.00998
G1 X164.788 Y102.287 E0.01852
G1 X164.788 Y96.780 E0.17268
G1 X165.542 Y96.780 E0.02365
G1 X165.542 Y103.687 E0.21656
G1 X165.573 Y104.065 E0.01192
G1 X165.573 Y108.707 E0.14555
G1 X165.852 Y108.345 E0.01435
G1 X166.125 Y107.930 E0.01558
G1 X166.296 Y108.104 E0.00766
G1 X166.296 Y96.780 E0.35508
G1 X167.051 Y96.780 E0.02365
G1 X167.051 Y109.116 E0.38679
G1 F8640
G1 X167.051 Y105.824 E-0.76000
G1 E-0.04000 F2100.00000
G1 Z0.800 F10800.000
G1 X167.051 Y121.432
G1 Z0.200
G1 E0.80000 F2100.00000
G1 F1200
G1 X167.051 Y109.415 E0.37679
G1 X166.296 Y110.179 E0.03364
G1 X166.296 Y121.263 E0.34754
G1 X165.542 Y121.263 E0.02365
G1 X165.542 Y114.569 E0.20987
G1 X165.440 Y114.977 E0.01318
G1 X165.291 Y115.319 E0.01169
G1 X165.054 Y115.682 E0.01361
G1 X164.788 Y115.969 E0.01225
G1 X164.788 Y121.263 E0.16600
G1 X164.034 Y121.263 E0.02365
G1 X164.034 Y116.177 E0.15945
G1 X163.871 Y116.093 E0.00577
G1 X163.864 Y112.938 E0.09892
G1 X163.808 Y112.561 E0.01193
G1 X163.674 Y112.138 E0.01392
G1 X163.503 Y111.798 E0.01193
G1 X163.280 Y111.483 E0.01211
G1 X163.280 Y121.263 E0.30665
G1 X162.526 Y121.263 E0.02365
G1 X162.526 Y110.859 E0.32620
G1 X162.274 Y110.738 E0.00875
G1 X162.035 Y110.653 E0.00796
G1 X161.771 Y110.588 E0.00851
G1 X161.771 Y121.263 E0.33470
G1 X161.017 Y121.263 E0.02365
G1 X161.017 Y110.555 E0.33572
G1 X160.656 Y110.619 E0.01151
G1 X160.263 Y110.752 E0.01299
G1 X160.263 Y121.263 E0.32957
G1 X159.509 Y121.263 E0.02365
G1 X159.509 Y111.247 E0.31404
G1 X159.245 Y111.537 E0.01228
G1 X159.034 Y111.853 E0.01193
G1 X158.871 Y112.197 E0.01193
G1 X158.755 Y112.588 E0.01280
G1 X158.755 Y121.263 E0.27198
G1 X158.001 Y121.263 E0.02365
G1 X158.001 Y116.601 E0.14615
G1 X157.246 Y116.601 E0.02365
G1 X157.246 Y121.263 E0.14615
G1 X156.492 Y121.263 E0.02365
G1 X156.492 Y116.601 E0.14615
G1 X155.738 Y116.601 E0.02365
G1 X155.738 Y121.263 E0.14615
G1 X154.984 Y121.263 E0.02365
G1 X154.984 Y116.432 E0.15148
G1 F8640
G1 X154.984 Y119.723 E-0.76000
G1 E-0.04000 F2100.00000
G1 Z0.800 F10800.000
G1 X151.213 Y121.432
G1 Z0.200
G1 E0.80000 F2100.00000
G1 F1200
G1 X151.213 Y116.601 E0.15148
G1 X150.459 Y116.601 E0.02365
G1 X150.459 Y121.263 E0.14615
G1 X149.705 Y121.263 E0.02365
G1 X149.705 Y116.601 E0.14615
G1 X148.951 Y116.601 E0.02365
G1 X148.951 Y121.263 E0.14615
G1 X148.197 Y121.263 E0.02365
G1 X148.197 Y116.601 E0.14615
G1 X148.113 Y116.601 E0.00263
G1 X147.871 Y116.359 E0.01074
G1 X147.858 Y112.874 E0.10926
G1 X147.808 Y112.561 E0.00995
G1 X147.719 Y112.256 E0.00995
G1 X147.594 Y111.965 E0.00995
G1 X147.442 Y111.703 E0.00950
G1 X147.442 Y121.263 E0.29975
G1 X146.688 Y121.263 E0.02365
G1 X146.688 Y110.956 E0.32316
G1 X146.332 Y110.763 E0.01269
G1 X145.934 Y110.625 E0.01322
G1 X145.934 Y121.263 E0.33355
G1 X145.180 Y121.263 E0.02365
G1 X145.180 Y110.544 E0.33609
G1 X144.780 Y110.591 E0.01264
G1 X144.426 Y110.688 E0.01150
G1 X144.426 Y121.263 E0.33156
G1 X143.672 Y121.263 E0.02365
G1 X143.672 Y111.106 E0.31846
G1 X143.455 Y111.299 E0.00909
G1 X143.245 Y111.537 E0.00995
G1 X143.066 Y111.798 E0.00995
G1 X142.917 Y112.085 E0.01012
G1 X142.917 Y121.263 E0.28777
G1 X142.163 Y121.263 E0.02365
G1 X142.163 Y116.262 E0.15680
G1 X141.931 Y116.096 E0.00896
G1 X141.715 Y115.907 E0.00901
G1 X141.409 Y115.538 E0.01500
G1 X141.409 Y121.263 E0.17948
G1 X140.655 Y121.263 E0.02365
G1 X140.655 Y110.001 E0.35311
G1 X140.421 Y110.379 E0.01396
G1 X140.234 Y110.739 E0.01271
G1 X140.072 Y111.117 E0.01290
G1 X139.901 Y111.635 E0.01709
G1 X139.901 Y121.263 E0.30188
G1 X139.147 Y121.263 E0.02365
G1 X139.147 Y111.993 E0.29064
G1 F8640
G1 X139.147 Y115.285 E-0.76000
G1 E-0.04000 F2100.00000
G1 Z0.800 F10800.000
G1 X141.997 Y111.707
G1 Z0.200
G1 E0.80000 F2100.00000
G1 F1200
G1 X141.997 Y106.566 E0.16119
G1 X142.206 Y106.973 E0.01434
G1 X142.455 Y107.335 E0.01380
G1 X142.747 Y107.665 E0.01380
G1 X143.077 Y107.957 E0.01380
G1 X143.439 Y108.206 E0.01380
G1 X143.830 Y108.408 E0.01380
G1 X144.243 Y108.562 E0.01380
G1 X144.674 Y108.664 E0.01391
G1 X145.196 Y108.715 E0.01644
G1 X145.723 Y108.690 E0.01656
G1 X146.241 Y108.587 E0.01656
G1 X146.738 Y108.409 E0.01656
G1 X147.204 Y108.160 E0.01656
G1 X147.628 Y107.845 E0.01655
G1 X148.004 Y107.469 E0.01667
G1 X148.356 Y106.982 E0.01886
G1 X148.529 Y106.659 E0.01149
G1 X148.690 Y106.257 E0.01357
G1 X148.786 Y105.910 E0.01127
G1 X148.854 Y105.483 E0.01357
G1 X148.871 Y105.142 E0.01070
G1 X148.871 Y102.655 E0.07799
G1 X157.697 Y102.655 E0.27673
G1 X157.697 Y105.146 E0.07810
G1 X157.723 Y105.567 E0.01323
G1 X157.803 Y106.000 E0.01379
G1 X157.934 Y106.413 E0.01360
G1 X158.081 Y106.744 E0.01135
G1 X158.301 Y107.121 E0.01369
G1 X158.565 Y107.469 E0.01368
G1 X158.813 Y107.729 E0.01127
G1 X159.144 Y108.008 E0.01357
G1 X159.443 Y108.207 E0.01127
G1 X159.830 Y108.408 E0.01368
G1 X160.243 Y108.562 E0.01380
G1 X160.667 Y108.662 E0.01368
G1 X161.024 Y108.706 E0.01127
G1 X161.460 Y108.712 E0.01368
G1 X161.898 Y108.663 E0.01380
G1 X162.326 Y108.562 E0.01380
G1 X162.738 Y108.408 E0.01379
G1 X163.123 Y108.209 E0.01360
G1 X163.424 Y108.008 E0.01135
G1 X163.756 Y107.729 E0.01358
G1 X164.003 Y107.469 E0.01127
G1 X164.265 Y107.124 E0.01357
G1 X164.450 Y106.816 E0.01127
G1 X164.570 Y106.553 E0.00906
G1 X164.569 Y111.696 E0.16124
G1 X164.486 Y111.508 E0.00644
G1 X164.220 Y111.065 E0.01621
G1 X163.941 Y110.715 E0.01402
G1 X163.565 Y110.358 E0.01625
G1 X163.204 Y110.096 E0.01399
G1 X162.815 Y109.882 E0.01392
G1 X162.326 Y109.694 E0.01644
G1 X161.814 Y109.579 E0.01644
G1 X161.369 Y109.540 E0.01402
G1 X160.845 Y109.566 E0.01644
G1 X160.333 Y109.668 E0.01636
G1 X159.908 Y109.814 E0.01410
G1 X159.442 Y110.048 E0.01633
G1 X159.074 Y110.301 E0.01402
G1 X158.685 Y110.653 E0.01644
G1 X158.350 Y111.061 E0.01655
G1 X158.082 Y111.508 E0.01633
G1 X157.937 Y111.837 E0.01127
G1 X157.826 Y112.171 E0.01104
G1 X157.749 Y112.514 E0.01104
G1 X157.705 Y112.870 E0.01124
G1 X157.699 Y115.601 E0.08561
G1 X148.870 Y115.601 E0.27682
G1 X148.863 Y112.870 E0.08561
G1 X148.819 Y112.514 E0.01124
G1 X148.740 Y112.160 E0.01138
G1 X148.531 Y111.600 E0.01874
G1 X148.314 Y111.205 E0.01414
G1 X148.002 Y110.784 E0.01644
G1 X147.631 Y110.413 E0.01644
G1 X147.275 Y110.142 E0.01402
G1 X146.822 Y109.886 E0.01633
G1 X146.406 Y109.719 E0.01402
G1 X145.904 Y109.593 E0.01625
G1 X145.460 Y109.544 E0.01399
G1 X145.020 Y109.549 E0.01380
G1 X144.584 Y109.609 E0.01380
G1 X144.159 Y109.721 E0.01380
G1 X143.750 Y109.884 E0.01380
G1 X143.364 Y110.096 E0.01380
G1 X143.008 Y110.354 E0.01380
G1 X142.685 Y110.654 E0.01380
G1 X142.402 Y110.990 E0.01380
G1 X142.160 Y111.362 E0.01391
G1 X142.023 Y111.653 E0.01007
G1 F8640
G1 X142.006 Y108.361 E-0.76000
G1 E-0.04000 F2100.00000
G1 Z0.800 F10800.000
G1 X142.074 Y115.370
G1 Z0.200
G1 E0.80000 F2100.00000
G1 F1200
G1 X141.879 Y115.115 E0.01007
G1 X141.780 Y114.928 E0.00662
G1 X141.686 Y114.671 E0.00860
G1 X141.640 Y114.459 E0.00680
G1 X141.620 Y114.239 E0.00692
G1 X141.620 Y104.016 E0.32053
G1 X141.640 Y103.797 E0.00690
G1 X141.686 Y103.584 E0.00682
G1 X141.758 Y103.379 E0.00682
G1 X141.851 Y103.188 E0.00665
G1 X142.075 Y102.876 E0.01205
G1 X142.082 Y105.366 E0.07806
G1 X142.170 Y105.908 E0.01722
G1 X142.348 Y106.427 E0.01719
G1 X142.530 Y106.778 E0.01243
G1 X142.753 Y107.103 E0.01235
G1 X143.014 Y107.398 E0.01235
G1 X143.309 Y107.659 E0.01235
G1 X143.634 Y107.881 E0.01235
G1 X143.983 Y108.063 E0.01235
G1 X144.352 Y108.200 E0.01235
G1 X144.737 Y108.291 E0.01239
G1 X145.205 Y108.337 E0.01477
G1 X145.677 Y108.314 E0.01481
G1 X146.140 Y108.222 E0.01481
G1 X146.585 Y108.063 E0.01481
G1 X147.002 Y107.840 E0.01481
G1 X147.381 Y107.559 E0.01481
G1 X147.716 Y107.224 E0.01485
G1 X148.036 Y106.782 E0.01711
G1 X148.187 Y106.499 E0.01004
G1 X148.332 Y106.136 E0.01226
G1 X148.417 Y105.830 E0.00996
G1 X148.479 Y105.444 E0.01226
G1 X148.494 Y105.133 E0.00976
G1 X148.494 Y102.278 E0.08952
G1 X158.074 Y102.278 E0.30037
G1 X158.074 Y105.134 E0.08956
G1 X158.098 Y105.521 E0.01214
G1 X158.170 Y105.908 E0.01234
G1 X158.288 Y106.280 E0.01223
G1 X158.417 Y106.572 E0.01004
G1 X158.615 Y106.911 E0.01231
G1 X158.852 Y107.224 E0.01230
G1 X159.071 Y107.454 E0.00996
G1 X159.371 Y107.706 E0.01226
G1 X159.635 Y107.882 E0.00996
G1 X159.983 Y108.063 E0.01230
G1 X160.352 Y108.200 E0.01235
G1 X160.734 Y108.291 E0.01230
G1 X161.049 Y108.330 E0.00996
G1 X161.442 Y108.334 E0.01230
G1 X161.833 Y108.291 E0.01235
G1 X162.216 Y108.200 E0.01235
G1 X162.585 Y108.063 E0.01234
G1 X162.931 Y107.883 E0.01223
G1 X163.198 Y107.706 E0.01004
G1 X163.497 Y107.454 E0.01227
G1 X163.716 Y107.224 E0.00996
G1 X163.953 Y106.912 E0.01226
G1 X164.116 Y106.640 E0.00996
G1 X164.280 Y106.281 E0.01238
G1 X164.432 Y105.758 E0.01707
G1 X164.491 Y105.288 E0.01484
G1 X164.494 Y102.877 E0.07560
G1 X164.717 Y103.187 E0.01199
G1 X164.811 Y103.379 E0.00667
G1 X164.882 Y103.584 E0.00682
G1 X164.928 Y103.797 E0.00682
G1 X164.948 Y104.017 E0.00692
G1 X164.945 Y114.291 E0.32215
G1 X164.880 Y114.677 E0.01226
G1 X164.811 Y114.877 E0.00665
G1 X164.717 Y115.068 E0.00667
G1 X164.493 Y115.380 E0.01203
G1 X164.486 Y112.894 E0.07794
G1 X164.447 Y112.579 E0.00995
G1 X164.378 Y112.272 E0.00988
G1 X164.279 Y111.972 E0.00988
G1 X164.151 Y111.682 E0.00996
G1 X163.910 Y111.280 E0.01469
G1 X163.662 Y110.971 E0.01243
G1 X163.324 Y110.649 E0.01465
G1 X163.002 Y110.416 E0.01246
G1 X162.656 Y110.225 E0.01239
G1 X162.216 Y110.056 E0.01477
G1 X161.756 Y109.952 E0.01477
G1 X161.362 Y109.918 E0.01243
G1 X160.891 Y109.941 E0.01477
G1 X160.432 Y110.033 E0.01469
G1 X160.054 Y110.162 E0.01250
G1 X159.635 Y110.373 E0.01473
G1 X159.308 Y110.598 E0.01243
G1 X158.959 Y110.914 E0.01477
G1 X158.659 Y111.279 E0.01481
G1 X158.418 Y111.682 E0.01473
G1 X158.289 Y111.972 E0.00996
G1 X158.190 Y112.272 E0.00988
G1 X158.121 Y112.579 E0.00988
G1 X158.082 Y112.894 E0.00995
G1 X158.075 Y115.978 E0.09669
G1 X148.494 Y115.978 E0.30041
G1 X148.486 Y112.894 E0.09669
G1 X148.447 Y112.579 E0.00995
G1 X148.377 Y112.268 E0.01000
G1 X148.188 Y111.757 E0.01707
G1 X147.996 Y111.409 E0.01247
G1 X147.715 Y111.031 E0.01477
G1 X147.382 Y110.698 E0.01477
G1 X147.067 Y110.458 E0.01243
G1 X146.658 Y110.226 E0.01473
G1 X146.290 Y110.079 E0.01243
G1 X145.837 Y109.965 E0.01465
G1 X145.442 Y109.921 E0.01246
G1 X145.048 Y109.926 E0.01235
G1 X144.658 Y109.979 E0.01235
G1 X144.277 Y110.079 E0.01235
G1 X143.912 Y110.226 E0.01235
G1 X143.567 Y110.416 E0.01235
G1 X143.247 Y110.646 E0.01235
G1 X142.959 Y110.914 E0.01235
G1 X142.706 Y111.215 E0.01235
G1 X142.490 Y111.547 E0.01239
G1 X142.289 Y111.971 E0.01473
G1 X142.170 Y112.348 E0.01239
G1 X142.098 Y112.735 E0.01235
G1 X142.074 Y113.121 E0.01214
G1 X142.074 Y115.310 E0.06862
G1 X141.939 Y115.078 F10800.000
G1 X141.863 Y114.491
G1 F1200
G1 X141.856 Y114.426 E0.00032
G1 X141.847 Y113.113 E0.00841
G1 X141.860 Y112.702 E0.00351
G1 X141.879 Y112.494 E0.00246
G1 X141.900 Y112.274 E0.00334
G1 X141.929 Y112.083 E0.00357
G1 X141.959 Y111.892 E0.00420
G1 F8640
