; generated by PrusaSlicer 2.0.0+win64 on 2019-10-09 at 16:37:52

; 

; external perimeters extrusion width = 0.45mm
; perimeters extrusion width = 0.45mm
; infill extrusion width = 0.45mm
; solid infill extrusion width = 0.45mm
; top infill extrusion width = 0.40mm
; support material extrusion width = 0.35mm
; first layer extrusion width = 0.42mm

M73 P0 R51
M73 Q0 S52
M201 X1000 Y1000 Z1000 E5000 ; sets maximum accelerations, mm/sec^2
M203 X200 Y200 Z12 E120 ; sets maximum feedrates, mm/sec
M204 P1250 R1250 T1250 ; sets acceleration (P, T) and retract acceleration (R), mm/sec^2
M205 X8.00 Y8.00 Z0.40 E1.50 ; sets the jerk limits, mm/sec
M205 S0 T0 ; sets the minimum extruding and travel feed rate, mm/sec
M107
M115 U3.8.0 ; tell printer latest fw version
G90 ; use absolute coordinates
M83 ; extruder relative mode
M104 S215 ; set extruder temp
M140 S60 ; set bed temp
M190 S60 ; wait for bed temp
M109 S215 ; wait for extruder temp
G28 W ; home all without mesh bed level
G80 ; mesh bed leveling
G1 Y-3.0 F1000.0 ; go outside print area
G92 E0.0
G1 X60.0 E9.0 F1000.0 ; intro line
M73 Q0 S52
M73 P0 R51
G1 X100.0 E12.5 F1000.0 ; intro line
G92 E0.0
M221 S95
M900 K30 ; Filament gcode
G21 ; set units to millimeters
G90 ; use absolute coordinates
M83 ; use relative distances for extrusion
;BEFORE_LAYER_CHANGE
G92 E0.0
;0.2


G1 E-0.80000 F2100.00000
G1 Z0.600 F10800.000
;AFTER_LAYER_CHANGE
;0.2
G1 X76.790 Y91.790
G1 Z0.200
G1 E0.80000 F2100.00000
M204 S1000
G1 F1200
G1 X77.497 Y91.671 E0.02247
G1 X149.148 Y91.671 E2.24657
G1 X161.644 Y91.885 E0.39187
G1 X171.785 Y95.830 E0.34118
G1 X172.303 Y96.093 E0.01819
G1 X172.783 Y96.453 E0.01882
G1 X173.262 Y96.982 E0.02238
G1 X173.612 Y97.582 E0.02178
G1 X173.835 Y98.240 E0.02178
G1 X173.920 Y98.952 E0.02250
G1 X173.914 Y111.207 E0.38423
G1 X173.652 Y112.328 E0.03611
G1 X173.046 Y113.284 E0.03547
G1 X172.514 Y113.765 E0.02248
G1 X171.907 Y114.118 E0.02203
G1 X162.053 Y118.384 E0.33668
G1 X161.294 Y118.552 E0.02439
G1 X78.964 Y118.553 E2.58140
G1 X77.160 Y118.357 E0.05687
G1 X76.575 Y118.179 E0.01919
G1 X75.872 Y117.658 E0.02743
G1 X75.429 Y116.904 E0.02743
G1 X75.311 Y116.204 E0.02225
G1 X75.314 Y93.743 E0.70425
G1 X75.444 Y93.108 E0.02032
G1 X75.754 Y92.539 E0.02032
G1 X76.215 Y92.088 E0.02021
G1 X76.737 Y91.817 E0.01844
G1 F8640
G1 X77.497 Y91.671 E-0.17873
G1 X80.014 Y91.671 E-0.58127
G1 E-0.04000 F2100.00000
G1 Z0.800 F10800.000
G1 X77.499 Y93.860
G1 Z0.200
G1 E0.80000 F2100.00000
G1 F1200
G1 X77.499 Y102.792 E0.28006
G1 X77.642 Y103.148 E0.01204
G1 X77.813 Y103.500 E0.01226
G1 X78.186 Y104.099 E0.02214
G1 X78.186 Y98.988 E0.16026
G1 X78.203 Y98.792 E0.00616
G1 X78.253 Y98.586 E0.00667
G1 X78.253 Y94.030 E0.14285
G1 X79.008 Y94.030 E0.02365
G1 X79.008 Y97.968 E0.12348
G1 F8640
G1 X79.008 Y94.677 E-0.76000
G1 E-0.04000 F2100.00000
G1 Z0.800 F10800.000
G1 X80.088 Y96.857
G1 Z0.200
G1 E0.80000 F2100.00000
G1 F1200
G1 X80.088 Y97.109 E0.00642
G1 X80.606 Y97.109 E0.01322
G1 X80.606 Y97.000 E0.00277
G1 X81.124 Y97.000 E0.01322
G1 X81.124 Y97.109 E0.00277
G1 X81.642 Y97.109 E0.01322
G1 X81.642 Y97.000 E0.00277
G1 X82.159 Y97.000 E0.01322
G1 X82.159 Y97.109 E0.00277
G1 X82.677 Y97.109 E0.01322
G1 X82.677 Y97.000 E0.00277
G1 X83.195 Y97.000 E0.01322
G1 X83.195 Y97.109 E0.00277
G1 X83.713 Y97.109 E0.01322
G1 X83.713 Y97.000 E0.00277
G1 X84.231 Y97.000 E0.01322
G1 X84.231 Y97.252 E0.00642
G1 X84.287 Y97.857 F10800.000
G1 F1200
G1 X84.287 Y97.456 E0.01258
G1 X83.532 Y97.456 E0.02365
G1 X83.532 Y97.935 E0.01501
G1 X80.516 Y99.510 F10800.000
G1 F1200
G1 X80.516 Y102.490 E0.09346
G1 X84.287 Y102.721 F10800.000
G1 F1200
G1 X84.287 Y99.535 E0.09989
G1 X83.961 Y99.210 E0.01441
G1 X83.764 Y99.066 E0.00767
G1 X83.532 Y98.929 E0.00842
G1 X83.532 Y103.068 E0.12975
G1 X83.168 Y103.212 E0.01229
G1 X82.778 Y103.294 E0.01250
G1 X82.778 Y97.456 E0.18306
G1 X82.024 Y97.456 E0.02365
G1 X82.024 Y103.262 E0.18204
G1 X81.613 Y103.135 E0.01350
G1 X81.270 Y102.957 E0.01211
G1 X81.270 Y99.043 E0.12272
G1 X81.846 Y98.714 E0.02081
G1 X81.577 Y97.688 E0.03328
G1 X81.270 Y97.688 E0.00961
G1 X81.270 Y97.456 E0.00726
G1 X80.516 Y97.456 E0.02365
G1 X80.516 Y97.687 E0.00726
G1 X79.762 Y97.687 E0.02365
G1 X79.762 Y97.456 E0.00725
G1 X79.470 Y97.456 E0.00916
G1 X79.470 Y96.653 E0.02519
G1 X79.762 Y96.653 E0.00916
G1 X79.762 Y94.030 E0.08224
G1 X80.516 Y94.030 E0.02365
G1 X80.516 Y96.653 E0.08224
G1 X81.270 Y96.653 E0.02365
G1 X81.270 Y94.030 E0.08224
G1 X82.024 Y94.030 E0.02365
G1 X82.024 Y96.653 E0.08224
G1 X82.778 Y96.653 E0.02365
G1 X82.778 Y94.030 E0.08224
G1 X83.532 Y94.030 E0.02365
G1 X83.532 Y96.653 E0.08224
G1 X84.287 Y96.653 E0.02365
G1 X84.287 Y94.030 E0.08224
G1 X85.041 Y94.030 E0.02365
G1 X85.041 Y97.688 E0.11469
G1 X85.795 Y97.688 E0.02365
G1 X85.795 Y94.030 E0.11469
G1 X86.549 Y94.030 E0.02365
G1 X86.549 Y97.688 E0.11469
G1 X87.303 Y97.688 E0.02365
G1 X87.303 Y94.030 E0.11469
G1 X88.057 Y94.030 E0.02365
G1 X88.057 Y97.688 E0.11469
G1 X88.812 Y97.688 E0.02365
G1 X88.812 Y94.030 E0.11469
G1 X89.566 Y94.030 E0.02365
G1 X89.566 Y97.857 E0.12001
G1 F8640
G1 X89.566 Y94.566 E-0.76000
G1 E-0.04000 F2100.00000
G1 Z0.800 F10800.000
G1 X84.287 Y107.279
G1 Z0.200
G1 E0.80000 F2100.00000
G1 F1200
G1 X84.287 Y110.720 E0.10788
G1 F8640
G1 X84.287 Y107.429 E-0.76000
G1 E-0.04000 F2100.00000
G1 Z0.800 F10800.000
G1 X84.231 Y113.368
G1 Z0.200
G1 E0.80000 F2100.00000
G1 F1200
G1 X84.231 Y112.891 E0.01216
G1 X83.713 Y112.891 E0.01322
G1 X83.713 Y113.225 E0.00851
G1 X83.195 Y113.225 E0.01322
G1 X83.195 Y112.891 E0.00851
G1 X82.677 Y112.891 E0.01322
G1 X82.677 Y113.225 E0.00851
G1 X82.159 Y113.225 E0.01322
G1 X82.159 Y112.891 E0.00851
G1 X81.642 Y112.891 E0.01322
G1 X81.642 Y113.225 E0.00851
G1 X81.124 Y113.225 E0.01322
G1 X81.124 Y112.891 E0.00851
G1 X80.606 Y112.891 E0.01322
G1 X80.606 Y113.225 E0.00851
G1 X80.088 Y113.225 E0.01322
G1 X80.088 Y112.748 E0.01216
G1 X81.270 Y112.143 F10800.000
G1 F1200
G1 X81.270 Y112.544 E0.01258
G1 X80.516 Y112.544 E0.02365
G1 X80.516 Y112.313 E0.00726
G1 X79.762 Y112.313 E0.02365
G1 X79.762 Y112.544 E0.00725
G1 X79.470 Y112.544 E0.00916
G1 X79.470 Y113.572 E0.03223
G1 X79.762 Y113.572 E0.00916
G1 X79.762 Y116.195 E0.08224
G1 X80.516 Y116.195 E0.02365
G1 X80.516 Y113.572 E0.08224
G1 X81.270 Y113.572 E0.02365
G1 X81.270 Y116.365 E0.08756
G1 X82.024 Y116.365 F10800.000
G1 F1200
G1 X82.024 Y113.572 E0.08756
G1 X82.778 Y113.572 E0.02365
G1 X82.778 Y116.195 E0.08224
G1 X83.532 Y116.195 E0.02365
G1 X83.532 Y113.572 E0.08224
G1 X84.287 Y113.572 E0.02365
G1 X84.287 Y116.365 E0.08756
G1 X79.008 Y116.365 F10800.000
G1 F1200
G1 X79.008 Y112.217 E0.13004
G1 X78.755 Y112.082 E0.00898
G1 X78.541 Y111.898 E0.00885
G1 X78.367 Y111.665 E0.00911
G1 X78.253 Y111.414 E0.00865
G1 X78.253 Y116.195 E0.14990
G1 X77.499 Y116.195 E0.02365
G1 X77.499 Y106.755 E0.29599
G1 F8640
G1 X77.499 Y110.046 E-0.76000
G1 E-0.04000 F2100.00000
G1 Z0.800 F10800.000
G1 X80.516 Y107.510
G1 Z0.200
G1 E0.80000 F2100.00000
G1 F1200
G1 X80.516 Y110.187 E0.08394
G1 X80.674 Y110.418 E0.00878
G1 X80.857 Y110.626 E0.00869
G1 X81.037 Y110.790 E0.00763
G1 X81.270 Y110.957 E0.00898
G1 X81.270 Y107.043 E0.12272
G1 X81.616 Y106.864 E0.01222
G1 X82.024 Y106.738 E0.01338
G1 X82.024 Y112.544 E0.18204
G1 X82.778 Y112.544 E0.02365
G1 X82.778 Y106.706 E0.18306
G1 X83.172 Y106.789 E0.01261
G1 X83.532 Y106.933 E0.01217
G1 X83.532 Y111.071 E0.12975
G1 X83.152 Y111.286 E0.01371
G1 X83.422 Y112.312 E0.03328
G1 X83.532 Y112.312 E0.00346
G1 X83.532 Y112.544 E0.00726
G1 X84.287 Y112.544 E0.02365
G1 X84.287 Y112.312 E0.00726
G1 X85.041 Y112.312 E0.02365
G1 X85.041 Y116.195 E0.12173
G1 X85.795 Y116.195 E0.02365
G1 X85.795 Y112.312 E0.12173
G1 X86.549 Y112.312 E0.02365
G1 X86.549 Y116.195 E0.12173
G1 X87.303 Y116.195 E0.02365
G1 X87.303 Y112.312 E0.12173
G1 X88.057 Y112.312 E0.02365
G1 X88.057 Y116.195 E0.12173
G1 X88.812 Y116.195 E0.02365
G1 X88.812 Y112.312 E0.12173
G1 X89.566 Y112.312 E0.02365
G1 X89.566 Y116.365 E0.12705
G1 F8640
G1 X89.566 Y113.073 E-0.76000
G1 E-0.04000 F2100.00000
G1 Z0.800 F10800.000
G1 X118.978 Y112.143
G1 Z0.200
G1 E0.80000 F2100.00000
G1 F1200
G1 X118.978 Y116.195 E0.12705
G1 X119.732 Y116.195 E0.02365
G1 X119.732 Y112.312 E0.12173
G1 X120.486 Y112.312 E0.02365
G1 X120.486 Y116.195 E0.12173
G1 X121.240 Y116.195 E0.02365
G1 X121.240 Y112.312 E0.12173
G1 X121.995 Y112.312 E0.02365
G1 X121.995 Y116.195 E0.12173
G1 X122.749 Y116.195 E0.02365
G1 X122.749 Y112.312 E0.12173
G1 X123.503 Y112.312 E0.02365
G1 X123.503 Y116.365 E0.12705
G1 X125.765 Y116.365 F10800.000
G1 F1200
G1 X125.765 Y113.572 E0.08756
G1 X125.011 Y113.572 E0.02365
G1 X125.011 Y116.195 E0.08224
G1 X124.257 Y116.195 E0.02365
G1 X124.257 Y113.572 E0.08224
G1 X123.508 Y113.572 E0.02349
G1 X123.508 Y112.544 E0.03223
G1 X124.257 Y112.544 E0.02349
G1 X124.257 Y106.811 E0.17975
G1 X124.606 Y106.722 E0.01129
G1 X125.001 Y106.689 E0.01244
G1 X125.011 Y112.544 E0.18359
G1 X125.765 Y112.544 E0.02365
G1 X125.765 Y106.640 E0.18511
G1 X127.274 Y109.991 F10800.000
G1 F1200
G1 X127.274 Y108.590 E0.04395
G1 X127.227 Y108.385 E0.00657
G1 X127.113 Y108.065 E0.01066
G1 X126.953 Y107.765 E0.01066
G1 X126.751 Y107.492 E0.01066
G1 X126.520 Y107.259 E0.01028
G1 X126.520 Y110.960 E0.11603
G1 F8640
G1 X126.520 Y107.668 E-0.76000
G1 E-0.04000 F2100.00000
G1 Z0.800 F10800.000
G1 X126.520 Y112.143
G1 Z0.200
G1 E0.80000 F2100.00000
G1 F1200
G1 X126.520 Y116.195 E0.12705
G1 X127.274 Y116.195 E0.02365
G1 X127.274 Y112.312 E0.12173
G1 X128.028 Y112.312 E0.02365
G1 X128.028 Y116.195 E0.12173
G1 X128.782 Y116.195 E0.02365
G1 X128.782 Y112.312 E0.12173
G1 X129.536 Y112.312 E0.02365
G1 X129.536 Y116.195 E0.12173
G1 X130.290 Y116.195 E0.02365
G1 X130.290 Y112.312 E0.12173
G1 X131.044 Y112.312 E0.02365
G1 X131.044 Y116.365 E0.12705
G1 F8640
G1 X131.044 Y113.073 E-0.76000
G1 E-0.04000 F2100.00000
G1 Z0.800 F10800.000
G1 X125.655 Y113.368
G1 Z0.200
G1 E0.80000 F2100.00000
G1 F1200
G1 X125.655 Y112.891 E0.01216
G1 X125.138 Y112.891 E0.01322
G1 X125.138 Y113.225 E0.00851
G1 X124.620 Y113.225 E0.01322
G1 X124.620 Y112.891 E0.00851
G1 X124.102 Y112.891 E0.01322
G1 X124.102 Y113.368 E0.01216
G1 F8640
G1 X124.102 Y112.891 E-0.10996
G1 X124.620 Y112.891 E-0.11956
G1 X124.620 Y113.225 E-0.07694
G1 X125.138 Y113.225 E-0.11956
G1 X125.138 Y112.891 E-0.07694
G1 X125.655 Y112.891 E-0.11956
G1 X125.655 Y113.368 E-0.10996
G1 E-0.06752 F2100.00000
G1 Z0.800 F10800.000
G1 X123.503 Y110.978
G1 Z0.200
G1 E0.80000 F2100.00000
G1 F1200
G1 X123.503 Y107.238 E0.11725
G1 X123.250 Y107.489 E0.01115
G1 X123.047 Y107.762 E0.01066
G1 X122.887 Y108.062 E0.01066
G1 X122.772 Y108.382 E0.01066
G1 X122.749 Y108.474 E0.00297
G1 X122.749 Y110.045 E0.04926
G1 F8640
G1 X122.749 Y108.474 E-0.36275
G1 X122.772 Y108.382 E-0.02187
G1 X122.887 Y108.062 E-0.07853
G1 X123.047 Y107.762 E-0.07852
G1 X123.250 Y107.489 E-0.07852
G1 X123.503 Y107.238 E-0.08213
G1 X123.503 Y107.488 E-0.05768
G1 E-0.04000 F2100.00000
G1 Z0.800 F10800.000
G1 X123.503 Y102.979
G1 Z0.200
G1 E0.80000 F2100.00000
G1 F1200
G1 X123.503 Y99.239 E0.11726
G1 X123.276 Y99.459 E0.00991
G1 X123.054 Y99.751 E0.01150
G1 X122.880 Y100.077 E0.01159
G1 X122.760 Y100.425 E0.01153
G1 X122.749 Y102.044 E0.05078
G1 F8640
G1 X122.760 Y100.425 E-0.37393
G1 X122.880 Y100.077 E-0.08488
G1 X123.054 Y99.751 E-0.08532
G1 X123.276 Y99.459 E-0.08466
G1 X123.503 Y99.239 E-0.07300
G1 X123.503 Y99.491 E-0.05820
G1 E-0.04000 F2100.00000
G1 Z0.800 F10800.000
G1 X123.503 Y97.857
G1 Z0.200
G1 E0.80000 F2100.00000
G1 F1200
G1 X123.503 Y94.030 E0.12001
G1 X122.749 Y94.030 E0.02365
G1 X122.749 Y97.688 E0.11469
G1 X121.995 Y97.688 E0.02365
G1 X121.995 Y94.030 E0.11469
G1 X121.240 Y94.030 E0.02365
G1 X121.240 Y97.688 E0.11469
G1 X120.486 Y97.688 E0.02365
G1 X120.486 Y94.030 E0.11469
G1 X119.732 Y94.030 E0.02365
G1 X119.732 Y97.688 E0.11469
G1 X118.978 Y97.688 E0.02365
G1 X118.978 Y93.860 E0.12001
G1 F8640
G1 X118.978 Y97.151 E-0.76000
G1 E-0.04000 F2100.00000
G1 Z0.800 F10800.000
G1 X124.102 Y97.252
G1 Z0.200
G1 E0.80000 F2100.00000
G1 F1200
G1 X124.102 Y97.000 E0.00642
G1 X124.620 Y97.000 E0.01322
G1 X124.620 Y97.109 E0.00277
G1 X125.138 Y97.109 E0.01322
G1 X125.138 Y97.000 E0.00277
G1 X125.655 Y97.000 E0.01322
G1 X125.655 Y97.252 E0.00642
G1 F8640
G1 X125.655 Y97.000 E-0.05809
G1 X125.138 Y97.000 E-0.11956
G1 X125.138 Y97.109 E-0.02507
G1 X124.620 Y97.109 E-0.11956
G1 X124.620 Y97.000 E-0.02507
G1 X124.102 Y97.000 E-0.11956
G1 X124.102 Y97.252 E-0.05809
G1 E-0.27499 F2100.00000
G1 Z0.800 F10800.000
G1 X127.274 Y101.991
G1 Z0.200
G1 E0.80000 F2100.00000
G1 F1200
G1 X127.274 Y100.589 E0.04395
G1 X127.225 Y100.376 E0.00686
G1 X127.098 Y100.031 E0.01153
G1 X126.945 Y99.753 E0.00993
G1 X126.758 Y99.500 E0.00987
G1 X126.520 Y99.260 E0.01060
G1 X126.520 Y102.741 E0.10914
G1 X126.186 Y102.984 E0.01294
G1 X125.765 Y103.181 E0.01456
G1 X125.765 Y97.456 E0.17949
G1 X125.011 Y97.456 E0.02365
G1 X125.011 Y103.311 E0.18359
G1 X124.602 Y103.277 E0.01287
G1 X124.257 Y103.189 E0.01117
G1 X124.257 Y97.456 E0.17975
G1 X123.508 Y97.456 E0.02349
G1 X123.508 Y96.653 E0.02519
G1 X124.257 Y96.653 E0.02349
G1 X124.257 Y94.030 E0.08224
G1 X125.011 Y94.030 E0.02365
G1 X125.011 Y96.653 E0.08224
G1 X125.765 Y96.653 E0.02365
G1 X125.765 Y94.030 E0.08224
G1 X126.520 Y94.030 E0.02365
G1 X126.520 Y97.688 E0.11469
G1 X127.274 Y97.688 E0.02365
G1 X127.274 Y94.030 E0.11469
G1 X128.028 Y94.030 E0.02365
G1 X128.028 Y97.688 E0.11469
G1 X128.782 Y97.688 E0.02365
G1 X128.782 Y94.030 E0.11469
G1 X129.536 Y94.030 E0.02365
G1 X129.536 Y97.688 E0.11469
G1 X130.290 Y97.688 E0.02365
G1 X130.290 Y94.030 E0.11469
G1 X131.044 Y94.030 E0.02365
G1 X131.044 Y97.857 E0.12001
G1 F8640
G1 X131.044 Y94.566 E-0.76000
G1 E-0.04000 F2100.00000
G1 Z0.800 F10800.000
G1 X149.144 Y93.860
G1 Z0.200
G1 E0.80000 F2100.00000
G1 F1200
G1 X149.144 Y97.688 E0.12001
G1 X149.898 Y97.688 E0.02365
G1 X149.898 Y94.030 E0.11469
G1 X150.653 Y94.030 E0.02365
G1 X150.653 Y97.688 E0.11469
G1 X151.407 Y97.688 E0.02365
G1 X151.407 Y94.030 E0.11469
G1 X152.161 Y94.030 E0.02365
G1 X152.161 Y97.688 E0.11469
G1 X152.915 Y97.688 E0.02365
G1 X152.915 Y94.030 E0.11469
G1 X153.669 Y94.030 E0.02365
G1 X153.669 Y97.857 E0.12001
G1 X154.423 Y97.286 F10800.000
G1 F1200
G1 X154.423 Y103.413 E0.19210
G1 X153.669 Y103.095 F10800.000
G1 F1200
G1 X153.669 Y99.110 E0.12492
G1 X153.445 Y99.290 E0.00899
G1 X153.242 Y99.498 E0.00914
G1 X153.054 Y99.751 E0.00988
G1 X152.915 Y100.001 E0.00895
G1 X152.915 Y102.346 E0.07353
G1 X156.686 Y102.819 F10800.000
G1 F1200
G1 X156.686 Y99.420 E0.10659
G1 X156.365 Y99.136 E0.01345
G1 X155.932 Y98.872 E0.01588
G1 X155.932 Y103.115 E0.13302
G1 X155.559 Y103.243 E0.01235
G1 X155.178 Y103.304 E0.01212
G1 X155.178 Y97.456 E0.18337
G1 X155.932 Y97.456 E0.02365
G1 X155.932 Y98.317 E0.02701
G1 F8640
G1 X155.932 Y97.456 E-0.19891
G1 X155.178 Y97.456 E-0.17414
G1 X155.178 Y99.132 E-0.38695
G1 E-0.04000 F2100.00000
G1 Z0.800 F10800.000
G1 X156.206 Y97.252
G1 Z0.200
G1 E0.80000 F2100.00000
G1 F1200
G1 X156.206 Y97.000 E0.00642
G1 X155.688 Y97.000 E0.01322
G1 X155.688 Y97.109 E0.00277
G1 X155.171 Y97.109 E0.01322
G1 X155.171 Y97.000 E0.00277
G1 X154.653 Y97.000 E0.01322
G1 X154.653 Y97.109 E0.00277
G1 X154.135 Y97.109 E0.01322
G1 X154.135 Y96.857 E0.00642
G1 X154.423 Y96.822 F10800.000
G1 F1200
G1 X154.423 Y94.030 E0.08756
G1 X155.178 Y94.030 E0.02365
G1 X155.178 Y96.653 E0.08224
G1 X155.932 Y96.653 E0.02365
G1 X155.932 Y94.030 E0.08224
G1 X156.686 Y94.030 E0.02365
G1 X156.686 Y97.688 E0.11469
G1 X157.440 Y97.688 E0.02365
G1 X157.440 Y94.030 E0.11469
G1 X158.194 Y94.030 E0.02365
G1 X158.194 Y97.688 E0.11469
G1 X158.948 Y97.687 E0.02365
G1 X158.948 Y94.030 E0.11469
G1 X159.703 Y94.030 E0.02365
G1 X159.703 Y97.687 E0.11469
G1 X160.457 Y97.687 E0.02365
G1 X160.457 Y94.030 E0.11469
G1 X161.211 Y94.030 E0.02365
G1 X161.211 Y97.857 E0.12000
G1 F8640
G1 X161.211 Y94.566 E-0.76000
G1 E-0.04000 F2100.00000
G1 Z0.800 F10800.000
G1 X156.686 Y110.819
G1 Z0.200
G1 E0.80000 F2100.00000
G1 F1200
G1 X156.686 Y107.420 E0.10657
G1 X156.332 Y107.111 E0.01473
G1 X155.932 Y106.885 E0.01441
